X:1
T:English Suite V (A = 415 Hz)
T:BWV 810
T:J. S. Bach
%%score { ( 1 2 5 6 ) | ( 3 4 7 ) }
L:1/8
M:6/8
K:G
V:1 treble nm="Harp"
V:2 treble 
V:5 treble 
V:6 treble 
V:3 bass 
V:4 bass 
V:7 bass 
V:1
"^Prelude" z6 | z6 | z e>e Bg/f/g/e/ | ^A^c>c Ff/e/f/c/ | d/^c/d/e/d/=c/ Be>d | c/B/c/d/c/B/ Aa>a | %6
 a/g/a/c'/b/a/ g/f/g/b/a/g/ | f/e/f/g/f/e/ ^d/^c/d/e/c/d/ | e/^d/e/f/g/e/ ^c/=d/c/B/A/c/ | %9
 d/^c/d/e/f/d/ B/=c/B/A/G/B/ | ^c/B/c/d/e/c/ ^A/B/A/^G/F/A/ | B/^A/B/^c/d/B/ G z z | %12
 z E>E [^CE] z z | z/ F/B z z/ ^A/4B/4^c z | z/ B/4^c/4d z z/ c/4d/4e z | z/ ^c/e/g/f/e/ d3- | %16
 d/B/d/=f/e/d/ c3- | c/A/c/e/d/c/ B3- | B/G/B/d/c/B/ A3- | Ab>b ec'/b/c'/a/ | ^df>f Bb/a/b/f/ | %21
 g/a/g/f/e/g/ a/g/a/b/c'/a/ | f/g/f/e/d/f/ g/f/g/a/b/g/ | e/f/e/d/c/e/ f/e/f/g/a/f/ | %24
 ^dd>d [Be] z z | z A>A [FA] z z | z/ B/e z z/ ^d/4e/4f z | z/ e/4f/4g z z/ f/4g/4a z | %28
 z/ f/a/c'/b/a/ g/f/e/^d/e/B/ | c3- c/e/d/c/d/A/ | B3- B/d/c/B/c/G/ | A3- A/c/B/A/B/F/ | %32
 G3- G/G/F/E/F/^C/ | ^D3- D/B,/E/F/G- | G3- G^C/E/G/^A/ | B/B,/^C/^D/E/F/ G/E/F/G/A/B/ | %36
 c3- c/F/A/c/^D/F/ | E/G/B/e/E/d/ z/ e/a/c'/f/a/ | ^d/f/B/d/e- e/f/ g/4f/4g/4f/4g/4f/4e/ | %39
 e/^d/e/g/b/g/ e/b/g/e/B/c/ | d/c/d/=f/b/f/ d/b/f/d/B/d/ | c z z z A[^GB] | %42
 [A^c] z z z [Gce][GAc] | d/^c/d/f/a/f/ d/a/f/d/A/B/ | c/B/c/_e/a/e/ c/a/e/c/A/c/ | B z z z G[FA] | %46
 [GB] z z z [=FBd][FGB] | c/e/G/B/c/e/ c/e/G/B/c/e/ | c/f/A/B/c/f/ c/f/A/B/c/f/ | %49
 d/g/B/c/d/g/ d/g/B/c/d/g/ | e/g/^c/d/e/g/ e/g/c/d/e/g/ | fd>d Ge/d/e/c/ | FA>A Dd/c/d/A/ | %53
 B/A/G/A/B/^c/ d/e/f/a/g/f/ | e/d/^c/B/A/B/ c/d/e/g/f/e/ | a/f/d/A/c- c/e/d/c/B/A/ | %56
 B z/ G/A/B/ c/B/c/d/e/=f/ | g/e/c/G/_B- B/A/G/B/A/G/ | F/E/D/E/F/G/ A/B/c/d/e/f/ | gBg gcg | %60
 gdg geg | a/c'/a/g/f/e/ dgb | cgb cfa | Bfa Beg | Aeg Adf | g>fg/a/ b3 | a/g<fa/ g3 | %67
 f/e<d=f/ e3 | d/c<Bd/ c3- | c/c/B/A/G/F/ G/A/B/4A/4B/4A/4B/4A/4G/4A/4 | %70
 B2- B/^A/ B/^c/d/4c/4d/4c/4d/4c/4B/4c/4 | d2- d/^c/ d/e/f/4e/4f/4e/4f/4e/4d/4e/4 | %72
 f2- f/d/ ^c/d/ e2- | e/^c/4d/4e z z/ d/4e/4f z | z/ e/^a z z/ f/b z | %75
 ^e/^g/B/d/^c/B/ ^A/c/=e/=g/f/e/ | z/ f/a/c'/b/a/ g3- | g/e/g/b/a/g/ f3- | f/d/f/a/g/f/ e3- | %79
 ege ^cec | ^A z z z [EG^c][EFA] | B/^A/B/d/f/d/ B/f/d/B/F/G/ | A/G/A/c/f/c/ A/f/c/A/F/A/ | %83
 G z z z E[^DF] | [E^G] z z z [D=FB][DEG] | A/^G/A/^c/e/c/ A/e/c/A/E/F/ | %86
 G/F/G/_B/e/B/ G/e/B/G/E/G/ | F/A/D/E/F/A/ F/A/D/E/F/A/ | F/A/^D/E/F/A/ F/A/D/E/F/A/ | %89
 G/B/E/F/G/B/ G/B/E/F/G/B/ | ^G/B/E/F/G/B/ G/B/E/F/G/B/ | Ae>e A=f/e/f/d/ | ^GB>B Ee/d/e/B/ | %93
 c/e/A/B/c/e/ c/e/F/G/A/c/ | A/c/^D/E/F/A/ F/A/D/F/G/A/ | B/^G/E/B,/D- D/=F/E/D/C/B,/ | %96
 C z/ C/B,/A,/ F z/ F/E/^D/ | B z/ A/G/F/ E/G/B/e/^A- | A/F/^G/^A/B/^c/ ^d/B/c/d/e/f/ | %99
 g/e/f/g/a/b/ c'3 | b/a<gb/ a3 | g/f<eg/ f3 | e/d<^ce/ ^d =d2- | %103
 d/d/c/B/A/^G/ A/B/c/4B/4c/4B/4c/4B/4A/4B/4 | c2 z/ ^c/ d/e/f/4e/4f/4e/4f/4e/4d/4e/4 | %105
 f2 z/ f/ g/a/b/4a/4b/4a/4b/4a/4g/4a/4 | b/f/g/^d/e/g/ A/c/d/e/f/g/ | aBa gBg | fAf eGe | %109
 F/^A/^c/e/^d/c/ B/d/f/a/g/f/ | b/a/g/f/e/d/ c/B/A/G/F/E/ | ^D/F/B,/^C/D/F/ D/F/B,/C/D/F/ | %112
 E/G/B,/^D/E/G/ E/G/B,/D/E/G/ | F/A/^D/E/F/A/ F/A/D/E/F/A/ | G/B/E/F/G/B/ G/B/E/F/G/B/ | %115
 G/^A/E/F/G/A/ G/A/E/F/G/A/ | BB>B Ec/B/c/A/ | ^DF>F B,B/A/B/F/ | z e>e Bg/f/g/e/ | %119
 ^A^c>c Ff/e/f/c/ | d/^c/d/e/d/=c/ Be>d | c/B/c/d/c/B/ Aa>a | a/g/a/c'/b/a/ g/f/g/b/a/g/ | %123
 f/e/f/g/f/e/ ^d/^c/d/e/c/d/ | e/^d/e/f/g/e/ ^c/=d/c/B/A/c/ | d/^c/d/e/f/d/ B/=c/B/A/G/B/ | %126
 ^c/B/c/d/e/c/ ^A/B/A/^G/F/A/ | B/^A/B/^c/d/B/ G z z | z E>E [^CE] z z | z/ F/B z z/ ^A/4B/4^c z | %130
 z/ B/4^c/4d z z/ c/4d/4e z | z/ ^c/e/g/f/e/ d3- | d/B/d/=f/e/d/ c3- | c/A/c/e/d/c/ B3- | %134
 B/G/B/d/c/B/ A3- | Ab>b ec'/b/c'/a/ | ^df>f Bb/a/b/f/ | g/a/g/f/e/g/ a/g/a/b/c'/a/ | %138
 f/g/f/e/d/f/ g/f/g/a/b/g/ | e/f/e/d/c/e/ f/e/f/g/a/f/ | ^dd>d [Be] z z | z A>A [FA] z z | %142
 z/ B/e z z/ ^d/4e/4f z | z/ e/4f/4g z z/ f/4g/4a z | z/ f/a/c'/b/a/ g/f/e/^d/e/B/ | %145
 c3- c/e/d/c/d/A/ | B3- B/d/c/B/c/G/ | A3- A/c/B/A/B/F/ | G3- G/G/F/E/F/^C/ | ^D3- D/B,/E/F/G- | %150
 G3- G^C/E/G/^A/ | B/B,/^C/^D/E/F/ G/E/F/G/A/B/ | c3- c/F/A/c/^D/F/ | E/G/B/e/E/d/ z/ e/a/c'/f/a/ | %154
 ^d/f/B/d/e- e/f/ g/4f/4g/4f/4g/4f/4e/ | e6 |[M:4/4]"^Allemande"[Q:1/4=80] z4 z2 z z/ e/ | %157
 e>d c/B/A/G/ F/e/^d/a/ a/g/a/f/ | g/f/e z/ e/f/g/ a/b/4c'/4b/e/ e/4^d/4e/4d/4e/4d/4e/ | %159
 e>c' d/c'/d/b/ d/4c/4B/c/a/ B/a/B/g/ | B/4A/4G/A/f/ G/f/G/e/ F/e/^d e2- | %161
 e/g/f/e/ d^c/B/ B>=A G/F/E/D/ | ^C/B/^A/e/ e/d/e/^c/ d/c/B c/4^d/4c/4d/4e/4d/4c/4d/4 | %163
 e/d/^c/B/ B/4^A/4B/4A/4B g/4f/4ga/ f/^a/b/g/ | %164
 f/4e/4f/4e/4f/4e/4g/ f/e/f/g/ d/4^c/4d/4c/4d/4c/4d/ c/B/c/e/ | %165
 B/4^A/4B/4A/4B/4A/4B/ ^c/d/c/d/ e/g/f/e/ d/c/B/=A/ | ^G/f/^e/b/ b/^a/b/^g/ b/a/g/f/ b/=a/=g/f/ | %167
 z ^c/d/ e/4d/4ee/ e/f/4e/4d/4e/4f/ d/4c/4d/4c/4d/4c/4B/ | B4 ^C/E/B/^A/ B3/2 e/ | %169
 e>d c/B/A/G/ F/e/^d/a/ a/g/a/f/ | g/f/e z/ e/f/g/ a/b/4c'/4b/e/ e/4^d/4e/4d/4e/4d/4e/ | %171
 e>c' d/c'/d/b/ d/4c/4B/c/a/ B/a/B/g/ | B/4A/4G/A/f/ G/f/G/e/ F/e/^d e2- | %173
 e/g/f/e/ d^c/B/ B>=A G/F/E/D/ | ^C/B/^A/e/ e/d/e/^c/ d/c/B c/4^d/4c/4d/4e/4d/4c/4d/4 | %175
 e/d/^c/B/ B/4^A/4B/4A/4B g/4f/4ga/ f/^a/b/g/ | %176
 f/4e/4f/4e/4f/4e/4g/ f/e/f/g/ d/4^c/4d/4c/4d/4c/4d/ c/B/c/e/ | %177
 B/4^A/4B/4A/4B/4A/4B/ ^c/d/c/d/ e/g/f/e/ d/c/B/=A/ | ^G/f/^e/b/ b/^a/b/^g/ b/a/g/f/ b/=a/=g/f/ | %179
 z ^c/d/ e/4d/4ee/ e/f/4e/4d/4e/4f/ d/4c/4d/4c/4d/4c/4B/ | B4 ^C/E/B/^A/ B3/2 f/ | %181
 f2 z/ g/f/e/ ^d>e f/g/4a/4g/f/ | g/f/e- e/c'/b/a/ ^g/b/g/e/ =f/e/a/g/ | %183
 a>g =f/e/g/f/ f>e d/c/_B/A/ | ^G3/2A/4B/4 A/B/4c/4B/c/4d/4 c/B/4A/4=f/e/ d/c/B/A/ | %185
 C>B, ^C/D/E/F/ G/E/G/A/ ^c/e/g/f/ | f/e/d- d/e/f/g/ a/b/4c'/4f/g/4a/4 dd/4c/4B/4c/4 | %187
 B/d/e/f/ g>g g/f/a/g/ f/e/^d/e/ | G/4F/4E/F/e/ ^d/^c/d/f/ B/4A/4G/A/e/ d/c/d/f/ | %189
 d/4c/4B/c/e/ ^d/^c/d/f/ B>d e/f/g- | g/f/g/e/ a>a a/c'/b/a/ g/f/e/=d/ | %191
 c/b/a/c'/ e/^d/^c/B/ !arpeggio!g>a g/4f/4g/4f/4g/4f/4e/ | e4 F/A/e/^d/ e>f | %193
 f2 z/ g/f/e/ ^d>e f/g/4a/4g/f/ | g/f/e- e/c'/b/a/ ^g/b/g/e/ =f/e/a/g/ | %195
 a>g =f/e/g/f/ f>e d/c/_B/A/ | ^G3/2A/4B/4 A/B/4c/4B/c/4d/4 c/B/4A/4=f/e/ d/c/B/A/ | %197
 C>B, ^C/D/E/F/ G/E/G/A/ ^c/e/g/f/ | f/e/d- d/e/f/g/ a/b/4c'/4f/g/4a/4 dd/4c/4B/4c/4 | %199
 B/d/e/f/ g>g g/f/a/g/ f/e/^d/e/ | G/4F/4E/F/e/ ^d/^c/d/f/ B/4A/4G/A/e/ d/c/d/f/ | %201
 d/4c/4B/c/e/ ^d/^c/d/f/ B>d e/f/g- | g/f/g/e/ a>a a/c'/b/a/ g/f/e/=d/ | %203
 c/b/a/c'/ e/^d/^c/B/ !arpeggio!g>a g/4f/4g/4f/4g/4f/4e/ | e4 F/A/e/^d/ e3/2 z/ | %205
[M:3/2]"^Courante"[Q:1/4=160] z8 z2 z B | B3 c BAGF E^D- D2 | %207
 !arpeggio!B3 g fe^de f/4e/4f/4e/4f/4e/4f/4e/4 f/4e/4f/4e/4 d/e/ | %208
 f2 B2 !arpeggio!e2- e/f/4e/4d/4e/4f/ g/4f/4g/4f/4g/4f/4g/4f/4 g/4f/4g/4f/4 e/f/ | %209
 g2 B2 !arpeggio!e3 d d/4c/4d/4c/4d/4c/4d/4c/4 d/4c/4d/4c/4 B | %210
 c3 B AGFG A/4G/4A/4G/4A/4G/4A/4G/4 A/4G/4A/4G/4 F/G/ | A3 a gfed cB a2 |{c} B3 g fedc BA g2 | %213
{B} A3 c BAGF ED c2 | %214
 c/4B/4c/4B/4c/4B/4c/4B/4 c/4B/4c/4B/4 A GFGA B/4A/4B/4A/4B/4A/4B/4A/4 B/4A/4B/4A/4 G/A/ | %215
 G2 B2 e/4d/4e/- e2 f ge^cd | egfe z2 b2 d/4^c/4d/4c/4d/4c/4d/4c/4 d/4c/4d/4c/4 B | B6- B4- B B | %218
 B3 c BAGF E^D- D2 | !arpeggio!B3 g fe^de f/4e/4f/4e/4f/4e/4f/4e/4 f/4e/4f/4e/4 d/e/ | %220
 f2 B2 !arpeggio!e2- e/f/4e/4d/4e/4f/ g/4f/4g/4f/4g/4f/4g/4f/4 g/4f/4g/4f/4 e/f/ | %221
 g2 B2 !arpeggio!e3 d d/4c/4d/4c/4d/4c/4d/4c/4 d/4c/4d/4c/4 B | %222
 c3 B AGFG A/4G/4A/4G/4A/4G/4A/4G/4 A/4G/4A/4G/4 F/G/ | A3 a gfed cB a2 |{c} B3 g fedc BA g2 | %225
{B} A3 c BAGF ED c2 | %226
 c/4B/4c/4B/4c/4B/4c/4B/4 c/4B/4c/4B/4 A GFGA B/4A/4B/4A/4B/4A/4B/4A/4 B/4A/4B/4A/4 G/A/ | %227
 G2 B2 e/4d/4e/- e2 f ge^cd | egfe z2 b2 d/4^c/4d/4c/4d/4c/4d/4c/4 d/4c/4d/4c/4 B | B6- B4- B f | %230
 f2 e^d ^cBcd ef g/4f/4g/4f/4g/4f/4e/4f/4 | !arpeggio!g3 E F^GAB cd- dd | %232
{d} c2- c/d/4c/4B/4c/4d/ ede=f c/4B/4c/4B/4c/4B/4c/4B/4 c/4B/4c/4B/4 A | A3 B ^cdef ga- aa | %234
 bc'ba gfed ^cd e/4d/4e/4d/4e/4d/4c/4d/4 | %235
 e2 AB/^c/ d/4c/4d/4c/4d/4c/4d/4c/4 d/4c/4d/4c/4d/4c/4d/4c/4 d/4c/4d/4c/4d/4c/4d/4c/4 d/4c/4d/4c/4 B/c/ | %236
 e/4d/4e/4d/4e/4d/4e/4d/4 e/4d/4e/4d/4e/4d/4e/4d/4 e/4d/4e/4d/4e/4d/4e/4d/4 e/4d/4e/4d/4e/4d/4e/4d/4 e/4d/4e/4d/4e/4d/4e/4d/4 e/4d/4e/4d/4 ^c/d/ | %237
 e3 f d^cde d/4c/4d/4c/4d/4c/4d/4c/4 d/4c/4d/4c/4 d | d2 f2 a2- ab agfe | ^dB^cd efga gfe=d | %240
 c3 B AcBA A/4G/4A/4G/4A/4G/4A/4G/4 A/4G/4A/4G/4 F | F3 a gfe^d ^cB- B2 | %242
 B/4A/4B/4A/4B/4A/4B/4A/4 B/4A/4B/4A/4 g fe^d^c BA- A2 | G3 B ^c^def ga- a2- | %244
 a3 b g3 f g/4f/4g/4f/4g/4f/4g/4f/4 g/4f/4g/4f/4 e | e6- e4- e f | %246
 f2 e^d ^cBcd ef g/4f/4g/4f/4g/4f/4e/4f/4 | !arpeggio!g3 E F^GAB cd- dd | %248
{dddd} c2- c/d/4c/4B/4c/4d/ ede=f c/4B/4c/4B/4c/4B/4c/4B/4 c/4B/4c/4B/4 A | A3 B ^cdef ga- aa | %250
 bc'ba gfed ^cd e/4d/4e/4d/4e/4d/4c/4d/4 | %251
 e2 AB/^c/ d/4c/4d/4c/4d/4c/4d/4c/4 d/4c/4d/4c/4d/4c/4d/4c/4 d/4c/4d/4c/4d/4c/4d/4c/4 d/4c/4d/4c/4 B/c/ | %252
 e/4d/4e/4d/4e/4d/4e/4d/4 e/4d/4e/4d/4e/4d/4e/4d/4 e/4d/4e/4d/4e/4d/4e/4d/4 e/4d/4e/4d/4e/4d/4e/4d/4 e/4d/4e/4d/4e/4d/4e/4d/4 e/4d/4e/4d/4 ^c/d/ | %253
 e3 f d^cde d/4c/4d/4c/4d/4c/4d/4c/4 d/4c/4d/4c/4 d | d2 f2 a2- ab agfe | ^dB^cd efga gfe=d | %256
 c3 B AcBA A/4G/4A/4G/4A/4G/4A/4G/4 A/4G/4A/4G/4 F | F3 a gfe^d ^cB- B2 | %258
 B/4A/4B/4A/4B/4A/4B/4A/4 B/4A/4B/4A/4 g fe^d^c BA- A2 | G3 B ^c^def ga- a2- | %260
 a3 b g3 f g/4f/4g/4f/4g/4f/4g/4f/4 g/4f/4g/4f/4 e | e6- e4- e z | z12 | %263
[M:3/4]"^Sarabande"[Q:1/4=80] BA/B/ cB AG | F/A/A/4G/4F/ G2 E2 | dc/d/ ed cB | A/c/B/A/ G>B e>e- | %267
 ed/^c/ de f2- | fe/^d/ ef g/f/e/g/ | f/g/e/f/ gf ed | d/4^c/4B/[cc]/d/ B4 | BA/B/ cB AG | %272
 F/A/A/4G/4F/ G2 E2 | dc/d/ ed cB | A/c/B/A/ G>B e>e- | ed/^c/ de f2- | fe/^d/ ef g/f/e/g/ | %277
 f/g/e/f/ gf ed | d/4^c/4B/[cc]/d/ B4 | f/g/a/g/ f^d ef | g/a/b/a/ g4- | g/f/e/f/ gb ag | %282
 f/e/d/e/ f4- | f=f/e/ fb a/<^g/^f/<e/ | d/=f/e fe/4d/4^c/ dd/4e/4f/ | ed/e/ =fe dc | %286
 B/d/d/4c/4B/{B} A4 | A/G/F/G/ A/B/c c2- | cB/A/ B/^c/d d2 | ^c/B/A/B/ c/^d/e e2- | %290
 e^d/^c/ d/e/f f2- | f/e/f/g/ ag fe | ^d/B/c- cB/A/ GF | BA/B/ cB AG | G/4F/4E/F/G/ E4 | %295
 f/g/a/g/ f^d ef | g/a/b/a/ g4- | g/f/e/f/ gb ag | f/e/d/e/ f4- | f=f/e/ fb a/<^g/^f/<e/ | %300
 d/=f/e fe/4d/4^c/ dd/4e/4f/ | ed/e/ =fe dc | B/d/d/4c/4B/{B} A4 | A/G/F/G/ A/B/c c2- | %304
 cB/A/ B/^c/d d2 | ^c/B/A/B/ c/^d/e e2- | e^d/^c/ d/e/f f2- | f/e/f/g/ ag fe | ^d/B/c- cB/A/ GF | %309
 BA/B/ cB AG | G/4F/4E/F/G/ E4 |[M:3/8]"^Passpied I" z2 B | e/f/gf | ge/^d/e/f/ | g/a/b/c'/b/a/ | %315
 b/e/f/g/a/b/ | c'b/a/g/f/ | ba/g/f/e/ | a/g/f/g/a/f/ | g/B/^c/^d/e/d/ | e/f/g/a/g/f/ | %321
 g/f/e/^d/e/f/ | g/a/b/c'/b/a/ | b/e/f/g/a/b/ | c'/d/e/f/g/a/ | bBe- | e/f/g/4f/4g/4f/4g/4f/4e/ | %327
 e2 g | B/c/de | dc/B/A/G/ | gB/c/d/e/ | d g2- | gea | f b2- | ba/g/f/e/ | g/f/e/d/f | B/^c/dc | %337
 d^c/B/c/d/ | e/f/gf | g3- | g/^a/b/g/f/e/ | d/^e/f/d/^c/B/ | e/f/d/4^c/4d/4c/4d/4c/4B/ | B2 B | %344
 e/f/gf | ge/^d/e/f/ | g/a/b/c'/b/a/ | b/e/f/g/a/b/ | c'b/a/g/f/ | ba/g/f/e/ | a/g/f/g/a/f/ | %351
 g/B/^c/^d/e/d/ | e/f/g/a/g/f/ | g/f/e/^d/e/f/ | g/a/b/c'/b/a/ | b/e/f/g/a/b/ | c'/d/e/f/g/a/ | %357
 bBe- | e/f/g/4f/4g/4f/4g/4f/4e/ | e2 B/c/ | d/B/^G/E/=f- | fed | c/e/a/c/B/^g/ | a/e/c/A/c/e/ | %364
 a/f/^d/B/c- | cBA | G/B/e/^d/e/f/ | e/^d/^c/B/b- | b/e/=f/d/e/B/ | d/c/B/A/a- | a/d/_e/c/d/A/ | %371
 c/B/A/G/d- | d/A/B/G/A/=F/ | E/d/c/A/B/G/ | f/g/c/B/A/B/ | G2 B | e/f/gf | ge/^d/e/f/ | %378
 g/a/b/c'/b/a/ | b/e/f/g/a/b/ | c'b/a/g/f/ | ba/g/f/e/ | a/g/f/g/a/f/ | g/B/^c/^d/e/d/ | %384
 e/f/g/a/g/f/ | g/f/e/^d/e/f/ | g/a/b/c'/b/a/ | b/e/f/g/a/b/ | c'/d/e/f/g/a/ | bBe- | %390
 e/f/g/4f/4g/4f/4g/4f/4e/ |[M:2/8] e2 |[M:1/8]"^Passpied II" b |[M:3/8] ^ga/g/f/e/ | f/^d/eB | %395
 ^cBA | ^G/F/Eb | ^ga/g/f/e/ | f/^d/eB | ^cBA | ^G2 b | ^ga/g/f/e/ | f/^d/eB | ^cBA | ^G/F/Eb | %405
 ^ga/g/f/e/ | f/^d/eB | ^cBA | ^G2 ^g | fe/^d/^c/B/ | e/^c/fe | ^de/d/^c/B/ | ^cF/^G/^A/B/ | %413
 ^c/^d/e/c/^g | fe/^d/^c/B/ | e/f/^d/4^c/4d/4c/4d/4c/4B/ | B2 B | ^GA/G/F/E/ | d/B/^c^d | %419
 ef/e/^d/^c/ | a/f/^gf- | f/^d/e^c- | c/a/B/^g/A/f/ | ^GAF | E2 ^g | fe/^d/^c/B/ | e/^c/fe | %427
 ^de/d/^c/B/ | ^cF/^G/^A/B/ | ^c/^d/e/c/^g | fe/^d/^c/B/ | e/f/^d/4^c/4d/4c/4d/4c/4B/ | B2 B | %433
 ^GA/G/F/E/ | d/B/^c^d | ef/e/^d/^c/ | a/f/^gf- | f/^d/e^c- | c/a/B/^g/A/f/ | ^GAF |[M:2/8] E2 | %441
[M:1/8]"^Passpeid I da capo" B |[M:3/8] e/f/gf | ge/^d/e/f/ | g/a/b/c'/b/a/ | b/e/f/g/a/b/ | %446
 c'b/a/g/f/ | ba/g/f/e/ | a/g/f/g/a/f/ | g/B/^c/^d/e/d/ | e/f/g/a/g/f/ | g/f/e/^d/e/f/ | %452
 g/a/b/c'/b/a/ | b/e/f/g/a/b/ | c'/d/e/f/g/a/ | bBe- | e/f/g/4f/4g/4f/4g/4f/4e/ | e2 g | B/c/de | %459
 dc/B/A/G/ | gB/c/d/e/ | d g2- | gea | f b2- | ba/g/f/e/ | g/f/e/d/f | B/^c/dc | d^c/B/c/d/ | %468
 e/f/gf | g3- | g/^a/b/g/f/e/ | d/^e/f/d/^c/B/ | e/f/d/4^c/4d/4c/4d/4c/4B/ | B2 B | e/f/gf | %475
 ge/^d/e/f/ | g/a/b/c'/b/a/ | b/e/f/g/a/b/ | c'b/a/g/f/ | ba/g/f/e/ | a/g/f/g/a/f/ | %481
 g/B/^c/^d/e/d/ | e/f/g/a/g/f/ | g/f/e/^d/e/f/ | g/a/b/c'/b/a/ | b/e/f/g/a/b/ | c'/d/e/f/g/a/ | %487
 bBe- | e/f/g/4f/4g/4f/4g/4f/4e/ | e2 B/c/ | d/B/^G/E/=f- | fed | c/e/a/c/B/^g/ | a/e/c/A/c/e/ | %494
 a/f/^d/B/c- | cBA | G/B/e/^d/e/f/ | e/^d/^c/B/b- | b/e/=f/d/e/B/ | d/c/B/A/a- | a/d/_e/c/d/A/ | %501
 c/B/A/G/d- | d/A/B/G/A/=F/ | E/d/c/A/B/G/ | f/g/c/B/A/B/ | G2 B | e/f/gf | ge/^d/e/f/ | %508
 g/a/b/c'/b/a/ | b/e/f/g/a/b/ | c'b/a/g/f/ | ba/g/f/e/ | a/g/f/g/a/f/ | g/B/^c/^d/e/d/ | %514
 e/f/g/a/g/f/ | g/f/e/^d/e/f/ | g/a/b/c'/b/a/ | b/e/f/g/a/b/ | c'/d/e/f/g/a/ | bBe- | %520
 e/f/g/4f/4g/4f/4g/4f/4e/ | e2 z | z3 |[M:3/8]"^Gigue"[Q:1/4=120] B/c/B/A/G/F/ | Ee^d | Ed^c | %526
 EcB | ^AB^c | d/g/=f/^c/^f/e/ | ^d/f/d/B/e/=d/ | ^c/e/c/^A/d/B/ | caB- | BgA- | AfG- | %534
 G/ z/ ^d/e/-e/f/ | ^def | gf z | =fe z | ^d z e- | e d2 | c3 | B3 | A/E/A/c/-c/B/ | G/B/e/g/f/B/ | %544
 e/c/A/F/G/d/ | C/F/A/c/B/E/ | A/F/^D/B,/C/A/ | B,/^D/F/A/G/F/ | G>FE/D/ | f/g/f/e/d/^c/ | Bb^a | %551
 Ba^g | Bgf | e2 ^d | d2 ^c | c2 B- | B^A^c | d/f/d/B/^d/f/ | e/g/e/B/e/^g/ | e/a/e/^c/e/^a/ | %560
 bBa | g/e/^c/^A/f/=A/ | =f/d/B/^G/e/=G/ | ^d/c/A/F/=d/=F/ | ^c>dB- | B/^c/B/4^A/4B/4A/4B/4A/4B/ | %566
 B/F/^D/B,/A/F/ | G/E/G/B/e/^d/ | e/B/e/g/b/^a/ | b3- | b3 | B/c/B/A/G/F/ | Ee^d | Ed^c | EcB | %575
 ^AB^c | d/g/=f/^c/^f/e/ | ^d/f/d/B/e/=d/ | ^c/e/c/^A/d/B/ | caB- | BgA- | AfG- | %582
 G/ z/ ^d/e/-e/f/ | ^def | gf z | =fe z | ^d z e- | e d2 | c3 | B3 | A/E/A/c/-c/B/ | G/B/e/g/f/B/ | %592
 e/c/A/F/G/d/ | C/F/A/c/B/E/ | A/F/^D/B,/C/A/ | B,/^D/F/A/G/F/ | G>FE/D/ | f/g/f/e/d/^c/ | Bb^a | %599
 Ba^g | Bgf | e2 ^d | d2 ^c | c2 B- | B^A^c | d/f/d/B/^d/f/ | e/g/e/B/e/^g/ | e/a/e/^c/e/^a/ | %608
 bBa | g/e/^c/^A/f/=A/ | =f/d/B/^G/e/=G/ | ^d/c/A/F/=d/=F/ | ^c>dB- | B/^c/B/4^A/4B/4A/4B/4A/4B/ | %614
 B/F/^D/B,/A/F/ | G/E/G/B/e/^d/ | e/B/e/g/b/^a/ | b3- | b3 | z3 | z3 | z3 | z3 | z3 | z3 | z3 | %626
 z3 | z3 | z3 | z3 | z3 | E/^D/E/F/G/A/ | BB,C | B^CD | B^DE- | E/G/F/E/^D/E/ | F/A/G/F/E/F/ | %637
 G/B/A/G/F/G/ | A/c/B/A/G/A/ | Bba | gcB | Aed | cED- | D/F/A/c/B/A/ | B3- | B>dc/B/ | A3- | %647
 A/D/F/A/G/F/ | G/B/^c/e/d/c/ | dAd- | dc/B/c | B3- | Be{d}c |{B} ABc- | cBe | ^d/^c/B/c/d/e/ | %656
 fFG | f^GA | f^AB | cg=f | e3- | ee^d | ed z | z cB | z A/^G/A | z/ F/^G/B/e/^d/ | e/B/^G/E/ z | %667
 z3 | z3 | z3 | z3 | z3 | z3 | z3 | z3 | z z2 | z3 | z3 | z3 | E/^D/E/F/G/A/ | BB,C | B^CD | %682
 B^DE- | E/G/F/E/^D/E/ | F/A/G/F/E/F/ | G/B/A/G/F/G/ | A/c/B/A/G/A/ | Bba | gcB | Aed | cED- | %691
 D/F/A/c/B/A/ | B3- | B>dc/B/ | A3- | A/D/F/A/G/F/ | G/B/^c/e/d/c/ | dAd- | dc/B/c | B3- | Be{d}c | %701
{B} ABc- | cBe | ^d/^c/B/c/d/e/ | fFG | f^GA | f^AB | cg=f | e3- | ee^d | ed z | z cB | z A/^G/A | %713
 z/ F/^G/B/e/^d/ | e/B/^G/E/ z |] %715
V:2
 z B>B Ec/B/c/A/ | ^DF>F B,B/A/B/F/ | G/F/G/A/G/F/ E/D/E/F/E/D/ | %3
 ^C/B,/C/D/C/B,/ ^A,/^G,/A,/B,/G,/A,/ | B,B>A G/F/G/A/G/F/ | EA>G F/E/F/G/F/E/ | ^DD>D E z2 | x6 | %8
 x6 | x6 | x6 | z F>F B,G/F/G/E/ | x6 | D>FE/D/ E>GF/E/ | F>AG/F/ G>d^c/B/ | %15
 ^A z z z/ ^c/B/=A/B/F/ | ^G z z z/ B/A/G/A/E/ | F z z z/ A/G/F/G/^D/ | E z z z/ G/F/E/F/^C/ | %19
 ^D[^df] z B[ea] z | z [Ac] z z [Bf] z | x6 | x6 | x6 | z B>B Ec/B/c/A/ | ^DF>F B,B/A/B/F/ | %26
 G>BA/G/ A>cB/A/ | B>dc/B/ c>gf/e/ | ^d2 z4 | z/ E/G/B/A/G/ F3- | F/D/=F/A/G/F/ E3- | %31
 E/^D/E/G/F/E/ D z2 | z/ F/E/^D/E/^C/ ^A, z2 | %33
 z/ C/B,/A,/B,/[I:staff +1]F,/[I:staff -1] z z G/^C/ | E/^A,/- A,2- A, ^C2 | F/ z/ z z4 | %36
 z/ B/A/G/F/E/ ^D z2 | z3 c2 z | z z z/ A/ G/e/ ^d2 | e z z z[I:staff +1] G,A, | %40
[I:staff -1] B, z z z[I:staff +1] B,^G, |[I:staff -1] A z z z EE | E z z z EE | D z z4 | x6 | %45
 G z G z DD | D z z z DD | x6 | x6 | x6 | x6 | d[FA]>[FA] D[Gc] z | z [CF]>[CF] C z2 | x6 | x6 | %55
 x6 | x6 | x6 | x6 | x6 | x6 | x6 | x6 | x6 | x6 | z/ B/A z z/ a/g/f/g/e/- | e>ed- d/f/e/d/e/c/- | %67
 c>cB- B/d/c/B/c/A/- | A>AG- G/B/A/G/A/F/ | D3 D F2 | z/ F/G/^D/E z ^A2 | z/ ^A/B/F/G z ^c2- | %72
 c/^c/d/^A/B- B-B/d/c/B/ | ^A>^cB/A/ B>dc/B/ | ^c>ed/c/ d>=a^g/f/ | x6 | d3- d/f/e/d/e/B/ | %77
 ^c3- c/e/d/c/d/^A/ | B3- B/d/^c/B/^A/B/ | ^Ae^c AcA | F z z z ^CC | x6 | x6 | E z z z B,B, | %84
 B, z z z B,B, | x6 | x6 | x6 | x6 | x6 | x6 | z [EAc]3/2 z/ z3 | z [DF^G] z z3 | x6 | x6 | x6 | %96
 x6 | x6 | x6 | z3 z/ b/a/g/a/f/- | f>fe- e/g/f/e/f/d/- | d>dc- c/e/d/c/d/B/- | %102
 B>BA- A/=c/B/A/B/^G/ | E3- E ^G2 | z/ ^G/A/E/=G z ^c2 | z/ ^c/d/A/=c z f2 | x6 | x6 | x6 | x6 | %110
 x6 | x6 | x6 | x6 | x6 | x6 | z [^DF]3/2 z/ z3 | x6 | G/F/G/A/G/F/ E/D/E/F/E/D/ | %119
 ^C/B,/C/D/C/B,/ ^A,/^G,/A,/B,/G,/A,/ | B,B>A G/F/G/A/G/F/ | EA>G F/E/F/G/F/E/ | ^DD>D E z2 | x6 | %124
 x6 | x6 | x6 | z F>F B,G/F/G/E/ |[I:staff +1] ^A,^C>C F,[I:staff -1]F/E/F/C/ | D>FE/D/ E>GF/E/ | %130
 F>AG/F/ G>d^c/B/ | ^A z z z/ ^c/B/=A/B/F/ | ^G z z z/ B/A/G/A/E/ | F z z z/ A/G/F/G/^D/ | %134
 E z z z/ G/F/E/F/^C/ | ^D[^df] z B[ea] z | z [Ac] z z [Bf] z | x6 | x6 | x6 | z B>B Ec/B/c/A/ | %141
 ^DF>F B,B/A/B/F/ | G>BA/G/ A>cB/A/ | B>dc/B/ c>gf/e/ | ^d2 z4 | z/ E/G/B/A/G/ F3- | %146
 F/D/=F/A/G/F/ E3- | E/^D/E/G/F/E/ D z2 | z/ F/E/^D/E/^C/ ^A, z2 | %149
 z/ C/B,/A,/B,/[I:staff +1]F,/[I:staff -1] z z G/^C/ | E/^A,/- A,2- A, ^C2 | F/ z/ z z4 | %152
 z/ B/A/G/F/E/ ^D z2 | z3 c2 z | z z z/ A/ G/e/ ^d2 | x6 |[M:4/4] x8 | B3/2 z/ z2 z4 | x8 | x8 | %160
 z4 F2 z/ =d/^c/B/ | ^A>^c BA z4 | x8 | x8 | x8 | z4 z[I:staff +1] A,B,D | %166
 B,^G,FE F[I:staff -1] z z2 | e/d/^c- c>c cB ^A2 | z z/ A/ G/F/E/D/ ^C2 ^D3/2 z/ | B3/2 z/ z2 z4 | %170
 x8 | x8 | z4 F2 z/ =d/^c/B/ | ^A>^c BA z4 | x8 | x8 | x8 | z4 z[I:staff +1] A,B,D | %178
 B,^G,FE F[I:staff -1] z z2 | e/d/^c- c>c cB ^A2 | z z/ A/ G/F/E/D/ ^C2 ^D3/2 z/ | z/ ^d3/2 z2 z4 | %182
 z z/ F/ G/A/B/c/ d z z2 | x8 | x8 | E z z2 z4 | x8 | x8 | x8 | z4 B2- B>B | %190
 e>^d c3/2 z/ B/ z/ z z2 | z4 !arpeggio!e z ^d2 | z z/ d/ c/B/A/G/ F2 ^G3/2 z/ | z/ ^d3/2 z2 z4 | %194
 z z/ F/ G/A/B/c/ d z z2 | x8 | x8 | E z z2 z4 | x8 | x8 | x8 | z4 B2- B>B | %202
 e>^d c3/2 z/ B/ z/ z z2 | z4 !arpeggio!e z ^d2 | z z/ d/ c/B/A/G/ F2 ^G3/2 x/ |[M:3/2] x12 | %206
 G3 z z4 z2 c2 | !arpeggio!G3 z z8 | z4 !arpeggio!B3 z z4 | %209
[I:staff +1] B,3[I:staff -1] z !arpeggio!B3 z z2[I:staff +1] =F,2 | x12 | %211
[I:staff -1] F3 z z4 z2 c2 | G4 z4 z2 B2 | F3 z z8 | z8 F4 | x12 | z4 d^c- c2 ^A4 | B6 F4- F z | %218
 G3 z z4 z2 c2 | !arpeggio!G3 z z8 | z4 !arpeggio!B3 z z4 | %221
[I:staff +1] B,3[I:staff -1] z !arpeggio!B3 z z2[I:staff +1] =F,2 | x12 | %223
[I:staff -1] F3 z z4 z2 c2 | G4 z4 z2 B2 | F3 z z8 | z8 F4 | x12 | z4 d^c- c2 ^A4 | B6 F4- F x | %230
 ^d2 z2 z8 | !arpeggio!e3 z z4 z2 ^G2 | A8 ^G4 | E3 z z4 z2 d2 | x12 | z2 A2- A8- | A12- | A8 G4 | %238
 [FA]2 z2 z8 | x12 | z8 E4 | ^D3 z z4 z2 E2 | ^D3 z z2 z4 [DF]2 | E4 z4 z2 ^c2 |{^c} ^d4 e4 =d4 | %245
 e6 B4- B z | ^d2 z2 z8 | !arpeggio!e3 z z4 z2 ^G2 | A8 ^G4 | E3 z z4 z2 d2 | x12 | z2 A2- A8- | %252
 A12- | A8 G4 | [FA]2 z2 z8 | x12 | z8 E4 | ^D3 z z4 z2 E2 | ^D3 z z2 z4 [DF]2 | E4 z4 z2 ^c2 | %260
{^c} ^d4 e4 =d4 | e6 B4- B x | x12 |[M:3/4] G z AG FE | ^D2 E2 B,2 | G2 GB AG | F2 G2 z z/ B/ | %267
 A3 B/=c/ dc | B3 ^c/^d/ ec | d2 ed ^cB | ^A2 z F E/4^D/4E/4D/4E/4D/4E/4D/4 | G2 AG FE | %272
 ^D2 E2 B,2 | G2 GB AG | F2 G2 z z/ B/ | A3 B/=c/ dc | B3 ^c/^d/ ec | d2 ed ^cB | %278
 ^A2 z F E/4^D/4E/4D/4E/4D/4E/4D/4 | ^d2 z B^cd | e2 e4 | ^c2 z c de | A2 A4 | B2 z2 z2 | %284
 B2 z2 z B | c2 dc BA | ^G2{G} A4 | F z z F GA | D2 z A ^GA/B/ | E2 z B ^AB/^c/ | F2 z =c BA | %291
 GA/B/ cB AG | FE ^D2 z2 | [EG]F/G/ AG FE | ^D2 z B, G,2 | ^d2 z B^cd | e2 e4 | ^c2 z c de | %298
 A2 A4 | B2 z2 z2 | B2 z2 z B | c2 dc BA | ^G2{GG} A4 | F z z F GA | D2 z A ^GA/B/ | %305
 E2 z B ^AB/^c/ | F2 z =c BA | GA/B/ cB AG | FE ^D2 z2 | [EG]F/G/ AG FE | ^D2 z B, G,2 | %311
[M:3/8] x3 | x3 | x3 | x3 | x3 | x3 | x3 | x3 | x3 | x3 | x3 | x3 | x3 | x3 | x3 | x3 | x3 | x3 | %329
 x3 | x3 | x3 | x3 | x3 | x3 | x3 | x3 | x3 | x3 | x3 | x3 | x3 | x3 | x3 | x3 | x3 | x3 | x3 | %348
 x3 | x3 | x3 | x3 | x3 | x3 | x3 | x3 | x3 | x3 | x3 | x3 | x3 | x3 | x3 | x3 | x3 | x3 | x3 | %367
 x3 | x3 | x3 | x3 | x3 | x3 | x3 | x3 | x3 | x3 | x3 | x3 | x3 | x3 | x3 | x3 | x3 | x3 | x3 | %386
 x3 | x3 | x3 | x3 | x3 |[M:2/8] z2 |[M:1/8] ^G/A/ |[M:3/8] BA^G | A^G/F/A/G/ | A^GF | E>F^G/A/ | %397
 BA^G | A^G/F/A/G/ | A^GF | E2 ^G/A/ | BA^G | A^G/F/A/G/ | A^GF | E>F^G/A/ | BA^G | A^G/F/A/G/ | %407
 A^GF | E2 B | B3- | B ^c2 | B3 | ^A z F/^G/ | ^A^GA | B3- | B ^A2 | B2 F | E3- | E3- | E/F/^G^A | %420
 B2 A- | A/F/^G/E/A/^C/ | ^DEF | EF^D | E2 B | B3- | B ^c2 | B3 | ^A z F/^G/ | ^A^GA | B3- | %431
 B ^A2 | B2 F | E3- | E3- | E/F/^G^A | B2 A- | A/F/^G/E/A/^C/ | ^DEF | EF^D |[M:2/8] E2 | %441
[M:1/8] x |[M:3/8] x3 | x3 | x3 | x3 | x3 | x3 | x3 | x3 | x3 | x3 | x3 | x3 | x3 | x3 | x3 | x3 | %458
 x3 | x3 | x3 | x3 | x3 | x3 | x3 | x3 | x3 | x3 | x3 | x3 | x3 | x3 | x3 | x3 | x3 | x3 | x3 | %477
 x3 | x3 | x3 | x3 | x3 | x3 | x3 | x3 | x3 | x3 | x3 | x3 | x3 | x3 | x3 | x3 | x3 | x3 | x3 | %496
 x3 | x3 | x3 | x3 | x3 | x3 | x3 | x3 | x3 | x3 | x3 | x3 | x3 | x3 | x3 | x3 | x3 | x3 | x3 | %515
 x3 | x3 | x3 | x3 | x3 | x3 | z2 x | x3 |[M:3/8] x3 | x3 | x3 | x3 | E/G/F/E/D/^C/ | B,B^A | %529
 B,A^G | B,GF | E/A/F/D/G/F/ | E/G/E/^C/F/E/ | ^D/F/D/B,/E/=D/ | C z A | B^c^d | e/c/^A/F/B/=A/ | %537
 ^G/B/G/E/A/=G/ | F/A/F/^D/G/E/ | F=FE- | EE^D- | D=D^C | C2 F |[I:staff +1] E2[I:staff -1] z | %544
 x3 | x3 | x3 | x3 | x3 | ^CDE | ^D/^g/^e/^c/f/=e/ | ^d/f/d/B/e/=d/ | ^c/e/c/^A/d/B/ | G F2 | %554
 =F E2 | ^D =D2 | ^CF^A | B2 A | G>Bd | ^c2 c | d2 ^d | x3 | x3 | x3 | E>FD- | D/E/ ^C2 | x3 | x3 | %568
 x3 | x3 | x3 | x3 | x3 | x3 | x3 | E/G/F/E/D/^C/ | B,B^A | B,A^G | B,GF | E/A/F/D/G/F/ | %580
 E/G/E/^C/F/E/ | ^D/F/D/B,/E/=D/ | C z A | B^c^d | e/c/^A/F/B/=A/ | ^G/B/G/E/A/=G/ | %586
 F/A/F/^D/G/E/ | F=FE- | EE^D- | D=D^C | C2 F |[I:staff +1] E2[I:staff -1] z | x3 | x3 | x3 | x3 | %596
 x3 | ^CDE | ^D/^g/^e/^c/f/=e/ | ^d/f/d/B/e/=d/ | ^c/e/c/^A/d/B/ | G F2 | =F E2 | ^D =D2 | ^CF^A | %605
 B2 A | G>Bd | ^c2 c | d2 ^d | x3 | x3 | x3 | E>FD- | D/E/ ^C2 | x3 | x3 | x3 | x3 | x3 | x3 | x3 | %621
 x3 | x3 | B,/^A,/B,/^C/D/E/ | F[I:staff +1]F,G, |[I:staff -1] F[I:staff +1]^G,A, | %626
[I:staff -1] F[I:staff +1]^A,B, |[I:staff -1] C/D/C/B,/A,/B,/ | C/E/D/C/B,/^C/ | D/F/E/D/^C/^D/ | %630
 E/^D/E/G/F/[I:staff +1]A,/ | x3 | x3 | x3 | x3 | x3 | x3 | x3 | x3 | x3 | x3 | x3 | x3 | x3 | %644
 G,/[I:staff -1]B,/D/=F/E/D/ | E3- | E/A,/C/E/D/C/ |[I:staff +1] B,3- | B,E[I:staff -1]G- | G F2 | %650
 E2 A- | AG/F/E/^D/ | E3- | E3 | A2 G | F z2 | x3 | x3 | x3 | x3 | z AG | F2 A | ^G[EB] z | %663
 z [EA][DE] | z [^DF]F | x3 | x3 | x3 | x3 | x3 | x3 | B,/^A,/B,/^C/D/E/ | F[I:staff +1]F,G, | %673
[I:staff -1] F[I:staff +1]^G,A, |[I:staff -1] F[I:staff +1]^A,B, |[I:staff -1] C/D/C/B,/A,/B,/ | %676
 C/E/D/C/B,/^C/ | D/F/E/D/^C/^D/ | E/^D/E/G/F/[I:staff +1]A,/ | x3 | x3 | x3 | x3 | x3 | x3 | x3 | %686
 x3 | x3 | x3 | x3 | x3 | x3 | G,/[I:staff -1]B,/D/=F/E/D/ | E3- | E/A,/C/E/D/C/ | %695
[I:staff +1] B,3- | B,E[I:staff -1]G- | G F2 | E2 A- | AG/F/E/^D/ | E3- | E3 | A2 G | F z2 | x3 | %705
 x3 | x3 | x3 | z AG | F2 A | ^G[EB] z | z [EA][DE] | z [^DF]F | x3 | x3 |] %715
V:3
 z6 | z6 | z6 | z6 | z6 | z6 | z B,>B, E,C/B,/C/A,/ | z A,>A, [F,A,] z z | %8
 G,/A,/G,/F,/E,/G,/ A,/^G,/A,/B,/^C/A,/ | F,/G,/F,/E,/D,/F,/ G,/F,/G,/A,/B,/G,/ | %10
 E,/F,/E,/D,/^C,/E,/ F,/G,/F,/E,/D,/C,/ | D,/E,/D,/^C,/B,,/D,/ E,/D,/E,/F,/E,/D,/ | %12
 ^A,^C>C F,[I:staff -1]F/E/F/C/ |[I:staff +1] B,,B,B,, B,,B,B,, | B,,B,B,, B,,B,B,, | %15
 B,,B,B,, B,/^A,/B,/^C/D/B,/ | E/=F/E/D/C/B,/ A,/^G,/A,/B,/C/A,/ | %17
 D/E/D/C/B,/A,/ G,/F,/G,/A,/B,/G,/ | C/D/C/B,/A,/G,/ F,/E,/F,/G,/A,/F,/ | %19
 B,/F,/A,/C/B,/A,/ G,/F,/G,/B,/A,/G,/ | F,/E,/F,/G,/F,/E,/ ^D,/^C,/D,/E,/C,/D,/ | %21
 E,/C,/E,/F,/G,/E,/ C,/D,/C,/B,,/A,,/C,/ | D,/A,,/D,/E,/F,/D,/ B,,/C,/B,,/A,,/G,,/B,,/ | %23
 C,/G,,/C,/D,/E,/C,/ A,,/B,,/A,,/G,,/F,,/A,,/ | B,,/F,,/A,,/C,/B,,/A,,/ G,,/F,,/G,,/B,,/A,,/G,,/ | %25
 F,,/E,,/F,,/G,,/F,,/E,,/ ^D,,/^C,,/D,,/E,,/C,,/D,,/ | E,,E,E,, E,,E,E,, | E,,E,E,, E,,E,E,, | %28
 E,,E,E,, E,/^D,/E,/F,/G,/E,/ | A,/B,/A,/G,/F,/E,/ D,/C,/D,/E,/F,/D,/ | %30
 G,/A,/G,/=F,/E,/D,/ C,/B,,/C,/D,/E,/C,/ | F,/G,/F,/E,/^D,/^C,/ B,,B,B,, | B,,B,B,, B,,^A,B,, | %33
 z3 G,3- | G,>E,G,/^C,/ E,/G,/- G,2 | F,/ z/ z2 E,C/B,/C/A,/ | ^D,F,>F, B,,B,/A,/B,/F,/ | %37
 G,A,/4^G,/4A,/4G,/4A,/4G,/4G,/ A,C>C | B,/C/B,/A,/G,/F,/ E,/A,/ B,B,, | E,, z z2 E,F, | %40
 ^G, z z2 G,E, | A,/^G,/A,/C/E/C/ A,/E/C/A,/E,/^F,/ | G,/F,/G,/_B,/E/B,/ G,/E/B,/G,/E,/G,/ | %43
 A, z z z F,G, | A, z z z A,F, | G,/F,/G,/B,/D/B,/ G,/D/B,/G,/D,/E,/ | %46
 =F,/E,/F,/_A,/D/A,/ F,/D/A,/F,/D,/F,/ | C z z z CC | [A,C] z z z [A,C][A,C] | %49
 [G,B,] z z z [G,B,][G,B,] | [G,_B,] z z z A,A, | D,/^C,/D,/E,/D,/=C,/ B,,/A,,/B,,/D,/C,/B,,/ | %52
 A,,/G,,/A,,/B,,/A,,/G,,/ F,,/E,,/F,,/G,,/E,,/F,,/ | G,,G,>G, D,B,/A,/B,/G,/ | %54
 ^C,E,>E, A,,A,/G,/A,/F,/ | F, z/ D,/E,/F,/ G,/F,/G,/A,/B,/C/ | %56
 D/B,/G,/D,/=F,- F,/A,/G,/F,/E,/D,/ | E, z/ =F,/E,/D,/ ^C,/D,/E,/^F,/G,/A,/ | %58
 D,/A,/F,/D,/C- C/E/D/C/B,/A,/ | B,/[I:staff -1]D/G/D/C/B,/ C/E/A/E/D/C/ | %60
 D/=F/B/F/E/D/ E/G/c/B/A/G/ | F/A/c/e/d/c/ B/c/B/A/G/F/ | E/G/B/d/c/B/ A/B/A/G/F/E/ | %63
 D/F/A/c/B/A/ G/A/G/F/E/D/ | C/E/G/B/A/G/ F/G/F/E/D/C/ |[I:staff +1] B,/C<DD/ G,E/D/E/C/ | %66
 F,C/4B,/4C/4B,/4C/4B,/4B,/ E,C/B,/C/A,/ | D,G,>G, C,A,/G,/A,/F,/ | B,,E,>E, A,,F,/E,/F,/D,/ | %69
 G,,>A,,B,,- B,,/C,/D,/C,/D,/D,,/ | G,,G,>F, G,/E,/F,/E,/F,/F,,/ | B,,B,>A, B,/G,/A,/G,/A,/A,,/ | %72
 D,D>B, G>GE/^C/ | FF,F FF,F | FF,F FF,F | FF,F F/G/F/E/D/^C/ | %76
 B,/^C/B,/A,/G,/F,/ E,/D,/E,/F,/G,/E,/ | A,/B,/A,/G,/F,/E,/ D,/^C,/D,/E,/F,/D,/ | %78
 G,/A,/G,/F,/E,/D,/ ^C,/B,,/C,/D,/E,/C,/ | F,/E,/F,/^A,/^C/A,/ F,/C/A,/F,/^C,/D,/ | %80
 E,/D,/E,/G,/^C/G,/ E,/C/G,/E,/^C,/E,/ | [F,B,] z z z D,E, | F, z z z F,^D, | %83
 E,/^D,/E,/G,/B,/G,/ E,/B,/G,/E,/B,,/^C,/ | D,/^C,/D,/=F,/B,/F,/ D,/B,/F,/D,/B,,/D,/ | %85
 [E,A,] z z z ^C,D, | E, z z z E,^C, | D,/F,/A,,/^C,/D,/F,/ D,/F,/A,,/C,/D,/F,/ | %88
 ^D,/F,/B,,/^C,/D,/F,/ D,/F,/B,,/C,/D,/F,/ | E,/G,/B,,/^D,/E,/G,/ E,/G,/B,,/D,/E,/G,/ | %90
 D,/=F,/^G,,/A,,/B,,/D,/ B,,/D,/G,,/A,,/B,,/D,/ | C,/E,/A,,/B,,/C,/E,/ C,/=F,/A,,/B,,/C,/F,/ | %92
 D,/=F,/B,,/C,/D,/^F,/ ^G,/B,/E,/F,/G,/E,/ | A,A,>A, E,C/B,/C/A,/ | ^D,F,>F, B,,B,/A,/B,/F,/ | %95
 ^G, z/ A,/G,/F,/ E,/D,/C,/B,,/A,,/^G,,/ | A,,/C,/E,/A,/^D,- D,/B,,/^C,/D,/E,/F,/ | %97
 G,/E,/F,/G,/A,/B,/ C>^CD/E/ | F, z/ F,/^G,/^A,/ B,, z/ B,,/^C,/^D,/ | E,,E>E A,F/E/F/D/ | %100
 G,C>C F,D/C/D/B,/ | E,A,>A, D,B,/A,/B,/G,/ | ^C,F,>F, B,,^G,/F,/G,/E,/ | %103
 A,,>B,,C,- C,/D,/E,/D,/E,/E,,/ | A,,A,>G, F,/G,/A,/G,/A,/A,,/ | D,D>C B,/C/D/C/D/D,/ | %106
 G,/A,/B,/F,/G,/E,/ C>CA,/F,/ | ^D,/F,/B,/F,/E,/D,/ E,/G,/^C/G,/F,/E,/ | %108
 F,/A,/^D/A,/G,/F,/ G,/B,/E/=D/^C/B,/ | ^A,/^C/[I:staff -1]E/G/F/E/ ^D/F/A/c/B/A/ | %110
 G/F/E/D/C/[I:staff +1]B,/ A,/G,/F,/E,/^D,/^C,/ | B,,^D,F, A,F,D, | B,,E,G, B,G,E, | %113
 A,F,^D, B,,A,F, | B,G,E, B,,G,E, | ^A,/E,/G,/F,/E,/D,/ ^C,/G,/F,/E,/^D,/C,/ | %116
 ^D,/F,/A,/C/B,/A,/ G,/B,/A,/G,/F,/E,/ | C/B,/A,/G,/F,/E,/ ^D,/^C,/B,, z | z6 | z6 | z6 | z6 | %122
 z B,>B, E,C/B,/C/A,/ | z A,>A, [F,A,] z z | G,/A,/G,/F,/E,/G,/ A,/^G,/A,/B,/^C/A,/ | %125
 F,/G,/F,/E,/D,/F,/ G,/F,/G,/A,/B,/G,/ | E,/F,/E,/D,/^C,/E,/ F,/G,/F,/E,/D,/C,/ | %127
 D,/E,/D,/^C,/B,,/D,/ E,/D,/E,/F,/E,/D,/ | ^A,^C>C F,[I:staff -1]F/E/F/C/ | %129
[I:staff +1] B,,B,B,, B,,B,B,, | B,,B,B,, B,,B,B,, | B,,B,B,, B,/^A,/B,/^C/D/B,/ | %132
 E/=F/E/D/C/B,/ A,/^G,/A,/B,/C/A,/ | D/E/D/C/B,/A,/ G,/F,/G,/A,/B,/G,/ | %134
 C/D/C/B,/A,/G,/ F,/E,/F,/G,/A,/F,/ | B,/F,/A,/C/B,/A,/ G,/F,/G,/B,/A,/G,/ | %136
 F,/E,/F,/G,/F,/E,/ ^D,/^C,/D,/E,/C,/D,/ | E,/C,/E,/F,/G,/E,/ C,/D,/C,/B,,/A,,/C,/ | %138
 D,/A,,/D,/E,/F,/D,/ B,,/C,/B,,/A,,/G,,/B,,/ | C,/G,,/C,/D,/E,/C,/ A,,/B,,/A,,/G,,/F,,/A,,/ | %140
 B,,/F,,/A,,/C,/B,,/A,,/ G,,/F,,/G,,/B,,/A,,/G,,/ | %141
 F,,/E,,/F,,/G,,/F,,/E,,/ ^D,,/^C,,/D,,/E,,/C,,/D,,/ | E,,E,E,, E,,E,E,, | E,,E,E,, E,,E,E,, | %144
 E,,E,E,, E,/^D,/E,/F,/G,/E,/ | A,/B,/A,/G,/F,/E,/ D,/C,/D,/E,/F,/D,/ | %146
 G,/A,/G,/=F,/E,/D,/ C,/B,,/C,/D,/E,/C,/ | F,/G,/F,/E,/^D,/^C,/ B,,B,B,, | B,,B,B,, B,,^A,B,, | %149
 z3 G,3- | G,>E,G,/^C,/ E,/G,/- G,2 | F,/ z/ z2 E,C/B,/C/A,/ | ^D,F,>F, B,,B,/A,/B,/F,/ | %153
 G,A,/4^G,/4A,/4G,/4A,/4G,/4G,/ A,C>C | B,/C/B,/A,/G,/F,/ E,/A,/ B,B,, | E,,6 | %156
[M:4/4] z4 z2 z z/ z/ | E,E,, z/ E,/F,/G,/ A,F,B,B,, | %158
 E>D C/B,/A,/G,/ F,/E/^D/[I:staff -1]A/ A/G/A/F/ | G/F/E F^G A/=G/F/E/ ^DE- | %160
 E^DE[I:staff +1]E, B,>A, G,/F,/E,/D,/ | ^C,/B,/^A,/E/ E/D/E/^C/ D/B,/C/D/ E2- | %162
 E/D/^C/B,/ ^A,>A, B,>G =A,/G/A,/F/ | G,/F,/G,/E/ F,/E/F,/D/ E,/D,/E,/^C/ D,/C/D,/B,/ | %164
 ^C,/B,,/C,/B,/ ^A,/^G,/A,/^C/ E,/D,/E,/B,/ A,/G,/A,/C/ | G,/F,/G,/B,/ ^A,/^G,/A,/^C/ F,4- | %166
 F,4- F,>E, D,/^C,/B,,/A,,/ | G,,/F,/E,/B,/ B,/^A,/B,/^G,/ A,B,/E,/ F,F,, | %168
 z/ ^C,/D, E,F, G,E, F,/A,/G,/F,/ | E,E,, z/ E,/F,/G,/ A,F,B,B,, | %170
 E>D C/B,/A,/G,/ F,/E/^D/[I:staff -1]A/ A/G/A/F/ | G/F/E F^G A/=G/F/E/ ^DE- | %172
 E^DE[I:staff +1]E, B,>A, G,/F,/E,/D,/ | ^C,/B,/^A,/E/ E/D/E/^C/ D/B,/C/D/ E2- | %174
 E/D/^C/B,/ ^A,>A, B,>G =A,/G/A,/F/ | G,/F,/G,/E/ F,/E/F,/D/ E,/D,/E,/^C/ D,/C/D,/B,/ | %176
 ^C,/B,,/C,/B,/ ^A,/^G,/A,/^C/ E,/D,/E,/B,/ A,/G,/A,/C/ | G,/F,/G,/B,/ ^A,/^G,/A,/^C/ F,4- | %178
 F,4- F,>E, D,/^C,/B,,/A,,/ | G,,/F,/E,/B,/ B,/^A,/B,/^G,/ A,B,/E,/ F,F,, | %180
 z/ ^C,/D, E,F, G,E, F,3/2 z/ | B,,>^C, ^D,/E,/F,/G,/ A,/D,/F,/A,/ C/B,/E/^D/ | %182
 E4- E>E B,/C/4D/4C/B,/ | C/B,/A,/A,,/ A,/B,,/A,/^C,/ _B,/C/B,/C,/ B,/D,/^C/E,/ | %184
 D/E/D/E,/ D/F,/D/^G,/ A,D,E,E,, | A,,/E,/A,- A,/A,/G,/F,/ E,/G,/E,/^C,/ A,,/C,/B,,/A,,/ | %186
 D,>E, F,/G,/A,/B,/ C/F,/A,/C/ E/D/G/F/ | G>F E/D/C/B,/ A,/B,/C/B,/ A,/G,/F,/E,/ | %188
 B,>C B,/A,/B,/C/ F,>G, F,/E,/F,/G,/ | ^D,>E, F,/G,/F,/G,/ A,/C/B,/A,/ G,/F,/E,/=D,/ | %190
 ^C,/B,/^A,/E/ E/^D/E/^C/ DB, z/[I:staff -1] E/F/G/ | %191
 A>G F/[I:staff +1]B,/^C/^D/ !arpeggio!EA,B,B,, | z/ F,/^G, A,B, CA, B,3/2 z/ | %193
 B,,>^C, ^D,/E,/F,/G,/ A,/D,/F,/A,/ C/B,/E/^D/ | E4- E>E B,/C/4D/4C/B,/ | %195
 C/B,/A,/A,,/ A,/B,,/A,/^C,/ _B,/C/B,/C,/ B,/D,/^C/E,/ | D/E/D/E,/ D/F,/D/^G,/ A,D,E,E,, | %197
 A,,/E,/A,- A,/A,/G,/F,/ E,/G,/E,/^C,/ A,,/C,/B,,/A,,/ | D,>E, F,/G,/A,/B,/ C/F,/A,/C/ E/D/G/F/ | %199
 G>F E/D/C/B,/ A,/B,/C/B,/ A,/G,/F,/E,/ | B,>C B,/A,/B,/C/ F,>G, F,/E,/F,/G,/ | %201
 ^D,>E, F,/G,/F,/G,/ A,/C/B,/A,/ G,/F,/E,/=D,/ | %202
 ^C,/B,/^A,/E/ E/^D/E/^C/ DB, z/[I:staff -1] E/F/G/ | %203
 A>G F/[I:staff +1]B,/^C/^D/ !arpeggio!EA,B,B,, | z/ F,/^G, A,B, CA, B,3/2 z/ |[M:3/2] z8 z2 z z | %206
 E,2 E,,2 z8 | z E,F,G, A,B,CB, A,G,F,E, | B,3 C B,A,G,F, E,^D,- D,2 | %209
 E,3 =F, E,D,C,B,, A,,^G,,- G,,2 | z E,A,B, CDED CB,A,G, | D2 D,2 z4 z2 D2 | D2 D,2 z4 z2 D2 | %213
 D2 D,2 z4 z D,E,F, | G,A,G,F, E,D,E,C, D,2 D,,2 | G,,2 G,A, G,F,E,D, z2 G,2 | F,6 G,2 F,4 | %217
 z2 ^D,2 F,2 B,4- B, z | E,2 E,,2 z8 | z E,F,G, A,B,CB, A,G,F,E, | B,3 C B,A,G,F, E,^D,- D,2 | %221
 E,3 =F, E,D,C,B,, A,,^G,,- G,,2 | z E,A,B, CDED CB,A,G, | D2 D,2 z4 z2 D2 | D2 D,2 z4 z2 D2 | %225
 D2 D,2 z4 z D,E,F, | G,A,G,F, E,D,E,C, D,2 D,,2 | G,,2 G,A, G,F,E,D, z2 G,2 | F,6 G,2 F,4 | %229
 z2 ^D,2 F,2 B,4- B, z | B,3 B,, ^C,^D,E,F, G,A,- A,2 | E,F,E,D, C,B,,A,,^G,, z2 E,2- | %232
 E,^G, A,2- A,4 E,4 | A,,2 A,2 G,2 F,2 E,2 F,2 | G,3 A, B,A,G,F, E,F,E,D, | %235
 A,3 A,, B,,^C,D,E, F,G,- G,2 |{G,} F,3 B,, ^C,D,E,F, G,A,- A,2- | %237
 A,F,G,E, F,3 E, F,/4E,/4F,/4E,/4F,/4E,/4F,/4E,/4 F,/4E,/4F,/4E,/4 D, | D,3 D CB,A,G, F,G,A,F, | %239
 B,3 A, G,F,E,^D, E,F,G,E, | A,B,A,G, F,E^DB, EB,^C^A, | B,2 B,,2 z4 z2 B,2 | B,2 B,,2 z4 z2 B,2 | %243
 B,2 B,,2- B,,B,,^C,^D, E,F,G,A, | B,^C^DB, E2 A,2 B,2 B,,2 | E,4 B,,2 E,4- E, z | %246
 B,3 B,, ^C,^D,E,F, G,A,- A,2 | E,F,E,D, C,B,,A,,^G,, z2 E,2- | E,^G, A,2- A,4 E,4 | %249
 A,,2 A,2 G,2 F,2 E,2 F,2 | G,3 A, B,A,G,F, E,F,E,D, | A,3 A,, B,,^C,D,E, F,G,- G,2 | %252
{G,G,G,} F,3 B,, ^C,D,E,F, G,A,- A,2- | %253
 A,F,G,E, F,3 E, F,/4E,/4F,/4E,/4F,/4E,/4F,/4E,/4 F,/4E,/4F,/4E,/4 D, | D,3 D CB,A,G, F,G,A,F, | %255
 B,3 A, G,F,E,^D, E,F,G,E, | A,B,A,G, F,E^DB, EB,^C^A, | B,2 B,,2 z4 z2 B,2 | B,2 B,,2 z4 z2 B,2 | %259
 B,2 B,,2- B,,B,,^C,^D, E,F,G,A, | B,^C^DB, E2 A,2 B,2 B,,2 | E,4 B,,2 E,4- E, z | z12 | %263
[M:3/4] E2 E,2 A,2 | B,B,, E,F, G,A, | B,2 C2 C,2 | D,D,, G,,2 z z/ G,/ | F,G, F,E, D,E,/F,/ | %268
 G,A, G,F, E,A, | D,B,, E,2 E,,2 | F,,2 z2 F,2 | E2 E,2 A,2 | B,B,, E,F, G,A, | B,2 C2 C,2 | %274
 D,D,, G,,2 z z/ G,/ | F,G, F,E, D,E,/F,/ | G,A, G,F, E,A, | D,B,, E,2 E,,2 | F,,2 z2 F,2 | %279
 B,B,, z[I:staff -1] AGF | E/F/G/F/ ED ^C[I:staff +1]B, | A,/B,/^C/B,/ z A, B,C | D2 D,C, B,,A,, | %283
 z D, D,D, D,E, | =F,^C, D,E, F, z | A,,A, D,E, =F,D, | E,E,, A,,G,, F,,E,, | D,,2 z D, E,F, | %288
 G,A, G,F, E,F,/^G,/ | A,B, A,G, F,^G,/^A,/ | B,B,, B,A, G,A,/B,/ | CB, A,B, CA, | %292
 B,2 B,,C, B,,A,, | G,,E,, A,,B,, C,A,, | B,,2 z2 B,,2 | B,B,, z[I:staff -1] AGF | %296
 E/F/G/F/ ED ^C[I:staff +1]B, | A,/B,/^C/B,/ z A, B,C | D2 D,C, B,,A,, | z D, D,D, D,E, | %300
 =F,^C, D,E, F, z | A,,A, D,E, =F,D, | E,E,, A,,G,, F,,E,, | D,,2 z D, E,F, | G,A, G,F, E,F,/^G,/ | %305
 A,B, A,G, F,^G,/^A,/ | B,B,, B,A, G,A,/B,/ | CB, A,B, CA, | B,2 B,,C, B,,A,, | %309
 G,,E,, A,,B,, C,A,, | B,,2 z2 B,,2 |[M:3/8] z2 E | G,A,B, | E,G,B, | E/F/GF | GF/E/F/G/ | AFD | %317
 GEC | F,E^D | EE,F, | G,A,B, | E,G,B, | E/F/GE | GF/E/F/G/ | AGF | G/F/E/D/C/B,/ | C/A,/B,B,, | %327
 E,E,,E,/F,/ | G,/A,/B,/C/B,/A,/ | B,/A,/G,/A,/B,/C/ | B,/A,/G,/A,/B,/C/ | B,/A,/G,/F,/E,/D,/ | %332
 C,/E,/A,/G,/F,/E,/ | D,/E,/D,/C,/B,,/A,,/ | G,,/E,/A,A,, | D,>F,B,/A,/ | G,/F,/E,/D,/E,/F,/ | %337
 B,,/B,/^A,/^G,/A,/B,/ | ^C,/B,/A,/G,/A,/^D,/ | E,/A,/G,/F,/G,/E,/ | ^C,D,^A,, | B,,D,G,- | %342
 G,/E,/F,F,, | B,,B,/A,/G,/F,/ | G,A,B, | E,G,B, | E/F/GF | GF/E/F/G/ | AFD | GEC | F,E^D | EE,F, | %352
 G,A,B, | E,G,B, | E/F/GE | GF/E/F/G/ | AGF | G/F/E/D/C/B,/ | C/A,/B,B,, | E,E,, z | %360
 z E,/F,/^G,/A,/ | B,/A,/^G,/B,/E,/G,/ | A,D,E, | A,,A,G, | F,B,,/^C,/^D,/E,/ | %365
 F,/E,/^D,/F,/B,,/D,/ | E,C,A,, | B,,-B,,/B,/A,/F,/ | ^G,E,G, | A,,-A,,/A,/G,/E,/ | F,D,F, | %371
 G,,>D,C,/A,,/ | B,,G,, z | C,A,, z | D,C,D, | G,/A,/B,/G,/A,/F,/ | G,A,B, | E,G,B, | E/F/GF | %379
 GF/E/F/G/ | AFD | GEC | F,E^D | EE,F, | G,A,B, | E,G,B, | E/F/GE | GF/E/F/G/ | AGF | %389
 G/F/E/D/C/B,/ | C/A,/B,B,, |[M:2/8] E,E,, |[M:1/8] E |[M:3/8] E3- | E3- | E2 F/4E/4F/4E/4 | E3- | %397
 E3- | E3 | A,B,B,, | E,B, E | E3- | E3- | E2 F/4E/4F/4E/4 | E3- | E3- | E3 | A,B,B,, | %408
 E,B,[K:treble] E | ^DEF | ^G^AF | B^A^G | F3- | F2[K:bass] E | ^D^G/F/E/D/ | ^C/B,/FF, | B,^C^D | %417
 EE,F, | ^G,A,B, | ^C3 | ^DEA, | B,3- | B,^C^D | EA,B, | E,2[K:treble] E | ^DEF | ^G^AF | B^A^G | %428
 F3- | F2[K:bass] E | ^D^G/F/E/D/ | ^C/B,/FF, | B,^C^D | EE,F, | ^G,A,B, | ^C3 | ^DEA, | B,3- | %438
 B,^C^D | EA,B, |[M:2/8] E,2 |[M:1/8] E |[M:3/8] G,A,B, | E,G,B, | E/F/GF | GF/E/F/G/ | AFD | GEC | %448
 F,E^D | EE,F, | G,A,B, | E,G,B, | E/F/GE | GF/E/F/G/ | AGF | G/F/E/D/C/B,/ | C/A,/B,B,, | %457
 E,E,,E,/F,/ | G,/A,/B,/C/B,/A,/ | B,/A,/G,/A,/B,/C/ | B,/A,/G,/A,/B,/C/ | B,/A,/G,/F,/E,/D,/ | %462
 C,/E,/A,/G,/F,/E,/ | D,/E,/D,/C,/B,,/A,,/ | G,,/E,/A,A,, | D,>F,B,/A,/ | G,/F,/E,/D,/E,/F,/ | %467
 B,,/B,/^A,/^G,/A,/B,/ | ^C,/B,/A,/G,/A,/^D,/ | E,/A,/G,/F,/G,/E,/ | ^C,D,^A,, | B,,D,G,- | %472
 G,/E,/F,F,, | B,,B,/A,/G,/F,/ | G,A,B, | E,G,B, | E/F/GF | GF/E/F/G/ | AFD | GEC | F,E^D | EE,F, | %482
 G,A,B, | E,G,B, | E/F/GE | GF/E/F/G/ | AGF | G/F/E/D/C/B,/ | C/A,/B,B,, | E,E,, z | %490
 z E,/F,/^G,/A,/ | B,/A,/^G,/B,/E,/G,/ | A,D,E, | A,,A,G, | F,B,,/^C,/^D,/E,/ | %495
 F,/E,/^D,/F,/B,,/D,/ | E,C,A,, | B,,-B,,/B,/A,/F,/ | ^G,E,G, | A,,-A,,/A,/G,/E,/ | F,D,F, | %501
 G,,>D,C,/A,,/ | B,,G,, z | C,A,, z | D,C,D, | G,/A,/B,/G,/A,/F,/ | G,A,B, | E,G,B, | E/F/GF | %509
 GF/E/F/G/ | AFD | GEC | F,E^D | EE,F, | G,A,B, | E,G,B, | E/F/GE | GF/E/F/G/ | AGF | %519
 G/F/E/D/C/B,/ | C/A,/B,B,, | E,E,, z | z3 |[M:3/8] z3 | z3 | z3 | z3 | z3 | z3 | z3 | z3 | z3 | %532
 z3 | z3 | z3 | B,/C/B,/A,/G,/F,/ | E,E^D | E,D^C | E,CB, | A,/D/B,/G,/C/B,/ | A,/C/A,/F,/B,/A,/ | %541
 ^G,/B,/G,/E,/A,/=G,/ | F,E^D | EE,D, | C,CB, | A,A,,G,, | F,,F,E, | ^D,3 | E,/G,/B,/D/C/B,/ | %549
 ^A,3 | A,^G,F,- | F,B,,^C,/D,/ | E,F,^G, | ^A,/^C/A,/F,/B,/=A,/ | ^G,/B,/G,/E,/A,/=G,/ | %555
 F,/A,/F,/D,/G,/F,/ | E,/G,/E,/^C,/F,/E,/ | D,B,,B,- | B,B,,B,- | B,B,,B,- | B,/C/B,/A,/G,/F,/ | %561
 E,E^D | E,D^C | E,CB, | ^A,>F,B,- | B,/E,/ F,F,, | B,A, z | z G,F, | z E,/^D,/E, | %569
 z/ B,,/^D,/F,/B,/^A,/ | B,/F,/^D,/B,,/B, | z3 | z3 | z3 | z3 | z3 | z3 | z3 | z3 | z3 | z3 | z3 | %582
 z3 | B,/C/B,/A,/G,/F,/ | E,E^D | E,D^C | E,CB, | A,/D/B,/G,/C/B,/ | A,/C/A,/F,/B,/A,/ | %589
 ^G,/B,/G,/E,/A,/=G,/ | F,E^D | EE,D, | C,CB, | A,A,,G,, | F,,F,E, | ^D,3 | E,/G,/B,/D/C/B,/ | %597
 ^A,3 | A,^G,F,- | F,B,,^C,/D,/ | E,F,^G, | ^A,/^C/A,/F,/B,/=A,/ | ^G,/B,/G,/E,/A,/=G,/ | %603
 F,/A,/F,/D,/G,/F,/ | E,/G,/E,/^C,/F,/E,/ | D,B,,B,- | B,B,,B,- | B,B,,B,- | B,/C/B,/A,/G,/F,/ | %609
 E,E^D | E,D^C | E,CB, | ^A,>F,B,- | B,/E,/ F,F,, | B,A, z | z G,F, | z E,/^D,/E, | %617
 z/ B,,/^D,/F,/B,/^A,/ | B,/F,/^D,/B,,/B, | F,/^D,/E,/F,/G,/A,/ | B,B,,C, | B,^C,D, | B,^D,E,/F,/ | %623
 G,F,E, | D,/E,/D,/^C,/B,,/C,/ | D,/F,/E,/D,/^C,/D,/ | E,/G,/F,/E,/D,/F,/ | E,G,,F,- | F,A,,G,- | %629
 G,B,,A,- | A,^C,^D, | G,/C/B,/A,/G,/F,/ | E,/A,/G,/F,/E,/F,/ | G,/B,/A,/G,/F,/G,/ | %634
 A,/C/B,/A,/G,/A,/ | F,3 | G,3 | A,3 | B,CD- | D z2 | E/C/A,/F,/G,/B,/ | C,/E,/A,/C/B,/E,/ | %642
 A,/E,/C,/A,,/B,,/D,/ | F,,3 | G,,3 | C,/E,/G,/B,/A,/G,/ | F,3 | G,3 | E,3 | D,/^C,/D,/E,/F,/G,/ | %650
 A,/B,/A,/G,/F,/E,/ | ^D,/B,,/^C,/D,/E,/F,/ | G,/A,/G,/F,/E,/D,/ | C,/D,/C,/B,,/A,,/G,,/ | %654
 F,,/^D,,/E,,/F,,/G,,/A,,/ | B,,/F,,/^G,,/^A,,/B,,/^C,/ | ^D,/E,/D,/^C,/B,,/C,/ | %657
 D,/F,/E,/D,/^C,/^D,/ | E,/G,/F,/E,/^D,/F,/ | E,/G,/F,/E,/D,/G,/ | C,/E,/D,/C,/B,,/G,/ | %661
 A,,/A,/G,/F,/B,/B,,/ | E,/B,,/^G,,/E,,/D,/B,,/ | C,/A,,/C,/E,/A,/^G,/ | A,/E,/A,/C/E/^D/ | E3 | %666
 z2 E,, | F,/^D,/E,/F,/G,/A,/ | B,B,,C, | B,^C,D, | B,^D,E,/F,/ | G,F,E, | D,/E,/D,/^C,/B,,/C,/ | %673
 D,/F,/E,/D,/^C,/D,/ | E,/G,/F,/E,/D,/F,/ | E,G,,F,- | F,A,,G,- | G,B,,A,- | A,^C,^D, | %679
 G,/C/B,/A,/G,/F,/ | E,/A,/G,/F,/E,/F,/ | G,/B,/A,/G,/F,/G,/ | A,/C/B,/A,/G,/A,/ | F,3 | G,3 | %685
 A,3 | B,CD- | D z2 | E/C/A,/F,/G,/B,/ | C,/E,/A,/C/B,/E,/ | A,/E,/C,/A,,/B,,/D,/ | F,,3 | G,,3 | %693
 C,/E,/G,/B,/A,/G,/ | F,3 | G,3 | E,3 | D,/^C,/D,/E,/F,/G,/ | A,/B,/A,/G,/F,/E,/ | %699
 ^D,/B,,/^C,/D,/E,/F,/ | G,/A,/G,/F,/E,/D,/ | C,/D,/C,/B,,/A,,/G,,/ | F,,/^D,,/E,,/F,,/G,,/A,,/ | %703
 B,,/F,,/^G,,/^A,,/B,,/^C,/ | ^D,/E,/D,/^C,/B,,/C,/ | D,/F,/E,/D,/^C,/^D,/ | E,/G,/F,/E,/^D,/F,/ | %707
 E,/G,/F,/E,/D,/G,/ | C,/E,/D,/C,/B,,/G,/ | A,,/A,/G,/F,/B,/B,,/ | E,/B,,/^G,,/E,,/D,/B,,/ | %711
 C,/A,,/C,/E,/A,/^G,/ | A,/E,/A,/C/E/^D/ | E3 | z2 E,, |] %715
V:4
 x6 | x6 | x6 | x6 | x6 | x6 | x6 | ^D,F,>F, B,,B,/A,/B,/F,/ | x6 | x6 | x6 | x6 | %12
 ^C,/B,,/C,/D,/C,/B,,/ ^A,,/^G,,/A,,/B,,/G,,/A,,/ | x6 | x6 | x6 | x6 | x6 | x6 | x6 | x6 | x6 | %22
 x6 | x6 | x6 | x6 | x6 | x6 | x6 | x6 | x6 | x6 | x6 | B,,3- B,,3- | B,,3- B,,3- | B,,B,>B, z3 | %36
 x6 | x6 | x6 | x6 | x6 | x6 | x6 | F, z z z D,E, | F, z z z F,D, | x6 | x6 | %47
 [E,G,] z z z [E,G,][E,G,] | _E, z z z E,E, | D, z z z D,D, | ^C, z z z [C,E,][A,,C,E,] | x6 | x6 | %53
 x6 | x6 | x6 | x6 | x6 | x6 | x6 | x6 | x6 | x6 | x6 | x6 | x6 | x6 | x6 | x6 | x6 | x6 | x6 | %72
 x6 | x6 | x6 | x6 | x6 | x6 | x6 | x6 | x6 | D, z z z B,,^C, | ^D, z z z D,B,, | x6 | x6 | %85
 ^C, z z z A,,B,, | ^C, z z z C,A,, | x6 | x6 | x6 | x6 | x6 | x6 | x6 | x6 | x6 | x6 | x6 | x6 | %99
 x6 | x6 | x6 | x6 | x6 | x6 | x6 | x6 | x6 | x6 | x6 | x6 | x6 | x6 | x6 | x6 | x6 | x6 | x6 | %118
 x6 | x6 | x6 | x6 | x6 | ^D,F,>F, B,,B,/A,/B,/F,/ | x6 | x6 | x6 | x6 | %128
 ^C,/B,,/C,/D,/C,/B,,/ ^A,,/^G,,/A,,/B,,/G,,/A,,/ | x6 | x6 | x6 | x6 | x6 | x6 | x6 | x6 | x6 | %138
 x6 | x6 | x6 | x6 | x6 | x6 | x6 | x6 | x6 | x6 | x6 | B,,3- B,,3- | B,,3- B,,3- | B,,B,>B, z3 | %152
 x6 | x6 | x6 | x6 |[M:4/4] x8 | x8 | B,3/2 z/ z2 z4 | x8 | x8 | x8 | x8 | x8 | x8 | x8 | x8 | x8 | %168
 B,,4- B,,2- B,,3/2 z/ | x8 | B,3/2 z/ z2 z4 | x8 | x8 | x8 | x8 | x8 | x8 | x8 | x8 | x8 | %180
 B,,4- B,,2- B,,3/2 z/ | x8 | x8 | x8 | x8 | x8 | x8 | x8 | x8 | x8 | x8 | z4 !arpeggio!E2 B,2 | %192
 E,4- E,2- E,3/2 z/ | x8 | x8 | x8 | x8 | x8 | x8 | x8 | x8 | x8 | x8 | z4 !arpeggio!E2 B,2 | %204
 E,4- E,2- E,3/2 x/ |[M:3/2] x12 | x12 | x12 | z4[I:staff -1] !arpeggio!G3[I:staff +1] z z2 C2 | %209
 x12 | A,,2 z2 z8 | x12 | x12 | x12 | x12 | z8 ^C,B,,- B,,2 | ^A,,2 F,,2 B,,2 E,2 F,2 F,,2 | %217
 B,,6- B,,4- B,, z | x12 | x12 | z4[I:staff -1] !arpeggio!G3[I:staff +1] z z2 C2 | x12 | %222
 A,,2 z2 z8 | x12 | x12 | x12 | x12 | z8 ^C,B,,- B,,2 | ^A,,2 F,,2 B,,2 E,2 F,2 F,,2 | %229
 B,,6- B,,4- B,, x | z8 z2 ^D,2 | z8 F,,E,,- E,,2 | A,,3 B,, C,2 D,2 E,2 E,,2 | x12 | x12 | %235
 z8 z2 A,,2- | A,,3 z z4 z2 B,,2 | ^C,4 D,2 G,,2 A,,4 | D,,3 z z8 | x12 | x12 | x12 | x12 | x12 | %244
 x12 | z2 E,,4- E,,4- E,, z | z8 z2 ^D,2 | z8 F,,E,,- E,,2 | A,,3 B,, C,2 D,2 E,2 E,,2 | x12 | %250
 x12 | z8 z2 A,,2- | A,,3 z z4 z2 B,,2 | ^C,4 D,2 G,,2 A,,4 | D,,3 z z8 | x12 | x12 | x12 | x12 | %259
 x12 | x12 | z2 E,,4- E,,4- E,, x | x12 |[M:3/4] x6 | x6 | x6 | x6 | x6 | x6 | x6 | z2 B,,4 | x6 | %272
 x6 | x6 | x6 | x6 | x6 | x6 | z2 B,,4 | x6 | x6 | z2 A,G, F,E, | D,/E,/F,/E,/ z4 | %283
 ^G,,G,, G,,G,, G,,G,, | ^G,,G,, G,,G,, G,,G,, | x6 | x6 | x6 | x6 | x6 | x6 | x6 | x6 | x6 | %294
 z2 E,,4 | x6 | x6 | z2 A,G, F,E, | D,/E,/F,/E,/ z4 | ^G,,G,, G,,G,, G,,G,, | %300
 ^G,,G,, G,,G,, G,,G,, | x6 | x6 | x6 | x6 | x6 | x6 | x6 | x6 | x6 | z2 E,,4 |[M:3/8] x3 | x3 | %313
 x3 | x3 | x3 | x3 | x3 | x3 | x3 | x3 | x3 | x3 | x3 | x3 | x3 | x3 | x3 | x3 | x3 | x3 | x3 | %332
 x3 | x3 | x3 | x3 | x3 | x3 | x3 | x3 | x3 | x3 | x3 | x3 | x3 | x3 | x3 | x3 | x3 | x3 | x3 | %351
 x3 | x3 | x3 | x3 | x3 | x3 | x3 | x3 | x3 | x3 | x3 | x3 | x3 | x3 | x3 | x3 | x3 | x3 | x3 | %370
 x3 | x3 | x3 | x3 | x3 | x3 | x3 | x3 | x3 | x3 | x3 | x3 | x3 | x3 | x3 | x3 | x3 | x3 | x3 | %389
 x3 | x3 |[M:2/8] x2 |[M:1/8] x |[M:3/8] x3 | x3 | x3 | x3 | x3 | x3 | x3 | x3 | x3 | x3 | x3 | %404
 x3 | x3 | x3 | x3 | x2[K:treble] x | x3 | x3 | x3 | x3 | x2[K:bass] x | x3 | x3 | x3 | x3 | x3 | %419
 x3 | x3 | x3 | x3 | x3 | x2[K:treble] x | x3 | x3 | x3 | x3 | x2[K:bass] x | x3 | x3 | x3 | x3 | %434
 x3 | x3 | x3 | x3 | x3 | x3 |[M:2/8] x2 |[M:1/8] x |[M:3/8] x3 | x3 | x3 | x3 | x3 | x3 | x3 | %449
 x3 | x3 | x3 | x3 | x3 | x3 | x3 | x3 | x3 | x3 | x3 | x3 | x3 | x3 | x3 | x3 | x3 | x3 | x3 | %468
 x3 | x3 | x3 | x3 | x3 | x3 | x3 | x3 | x3 | x3 | x3 | x3 | x3 | x3 | x3 | x3 | x3 | x3 | x3 | %487
 x3 | x3 | x3 | x3 | x3 | x3 | x3 | x3 | x3 | x3 | x3 | x3 | x3 | x3 | x3 | x3 | x3 | x3 | x3 | %506
 x3 | x3 | x3 | x3 | x3 | x3 | x3 | x3 | x3 | x3 | x3 | x3 | x3 | x3 | x3 | x3 | x3 |[M:3/8] x3 | %524
 x3 | x3 | x3 | x3 | x3 | x3 | x3 | x3 | x3 | x3 | x3 | x3 | x3 | x3 | x3 | x3 | x3 | x3 | x3 | %543
 x3 | x3 | x3 | x3 | x3 | x3 | x3 | x3 | x3 | x3 | x3 | x3 | x3 | x3 | x3 | x3 | x3 | x3 | x3 | %562
 x3 | x3 | x3 | x3 | B,,F, z | z [B,,E,][A,,B,,] | z [G,,B,,][E,,^C,] | x3 | x3 | x3 | x3 | x3 | %574
 x3 | x3 | x3 | x3 | x3 | x3 | x3 | x3 | x3 | x3 | x3 | x3 | x3 | x3 | x3 | x3 | x3 | x3 | x3 | %593
 x3 | x3 | x3 | x3 | x3 | x3 | x3 | x3 | x3 | x3 | x3 | x3 | x3 | x3 | x3 | x3 | x3 | x3 | x3 | %612
 x3 | x3 | B,,F, z | z [B,,E,][A,,B,,] | z [G,,B,,][E,,^C,] | x3 | x3 | x3 | x3 | x3 | x3 | x3 | %624
 x3 | x3 | x3 | x3 | x3 | x3 | x3 | E, z2 | G,, z A,, | z z B,, | z z C, | A,,F,,B,,- | B,,G,,C,- | %637
 C,A,,D,- | D,E,F, | G,/B,/D/G/F/B,/ | x3 | x3 | x3 | x3 | x3 | x3 | x3 | x3 | x3 | x3 | x3 | x3 | %652
 x3 | x3 | x3 | x3 | x3 | x3 | x3 | x3 | x3 | x3 | x3 | x3 | x3 | x3 | x3 | x3 | x3 | x3 | x3 | %671
 x3 | x3 | x3 | x3 | x3 | x3 | x3 | x3 | E, z2 | G,, z A,, | z z B,, | z z C, | A,,F,,B,,- | %684
 B,,G,,C,- | C,A,,D,- | D,E,F, | G,/B,/D/G/F/B,/ | x3 | x3 | x3 | x3 | x3 | x3 | x3 | x3 | x3 | %697
 x3 | x3 | x3 | x3 | x3 | x3 | x3 | x3 | x3 | x3 | x3 | x3 | x3 | x3 | x3 | x3 | x3 | x3 |] %715
V:5
 x6 | x6 | x6 | x6 | x6 | x6 | x6 | x6 | x6 | x6 | x6 | x6 | x6 | x6 | x6 | x6 | x6 | x6 | x6 | %19
 x6 | x6 | x6 | x6 | x6 | x6 | x6 | x6 | x6 | x6 | x6 | x6 | x6 | x6 | x6 | E3- E z G | %35
 ^D/ z/ z z4 | x6 | x6 | x6 | x6 | x6 | x6 | x6 | x6 | x6 | x6 | x6 | x6 | x6 | x6 | x6 | %51
[I:staff +1] A,[I:staff -1] z z4 | x6 | x6 | x6 | x6 | x6 | x6 | x6 | x6 | x6 | x6 | x6 | x6 | x6 | %65
 x6 | x6 | x6 | x6 | x6 | x6 | x6 | x6 | x6 | x6 | x6 | x6 | x6 | x6 | x6 | x6 | x6 | x6 | x6 | %84
 x6 | x6 | x6 | x6 | x6 | x6 | x6 | x6 | x6 | x6 | x6 | x6 | x6 | x6 | x6 | x6 | x6 | x6 | x6 | %103
 x6 | x6 | x6 | x6 | x6 | x6 | x6 | x6 | x6 | x6 | x6 | x6 | x6 | x6 | x6 | x6 | x6 | x6 | x6 | %122
 x6 | x6 | x6 | x6 | x6 | x6 | x6 | x6 | x6 | x6 | x6 | x6 | x6 | x6 | x6 | x6 | x6 | x6 | x6 | %141
 x6 | x6 | x6 | x6 | x6 | x6 | x6 | x6 | x6 | E3- E z G | ^D/ z/ z z4 | x6 | x6 | x6 | x6 | %156
[M:4/4] x8 | G3/2 z/ z2 z4 | x8 | x8 | x8 | x8 | x8 | x8 | x8 | x8 | x8 | x8 | z4 z/ E3/2 F3/2 z/ | %169
 G3/2 z/ z2 z4 | x8 | x8 | x8 | x8 | x8 | x8 | x8 | x8 | x8 | x8 | z4 z/ E3/2 F3/2 z/ | %181
 z/ ^d/B z2 z4 | x8 | x8 | x8 | A z z2 z4 | x8 | x8 | x8 | x8 | z2 f3/2 z/ f/ z/ z z2 | %191
 z4 !arpeggio!B z z2 | z4 z/ A3/2 B3/2 z/ | z/ ^d/B z2 z4 | x8 | x8 | x8 | A z z2 z4 | x8 | x8 | %200
 x8 | x8 | z2 f3/2 z/ f/ z/ z z2 | z4 !arpeggio!B z z2 | z4 z/ A3/2 B3/2 x/ |[M:3/2] x12 | %206
 E3 z z4 z2 A2 | !arpeggio!E3 z z8 | x12 | z4 !arpeggio![E^G]3 z z4 | x12 | z4 z4 z2 [FA]2 | %212
 z8 z2 G2 | x12 | x12 | x12 | x12 | z6 ^D4- D z | E3 z z4 z2 A2 | !arpeggio!E3 z z8 | x12 | %221
 z4 !arpeggio![E^G]3 z z4 | x12 | z4 z4 z2 [FA]2 | z8 z2 G2 | x12 | x12 | x12 | x12 | z6 ^D4- D x | %230
 B2 z2 z8 | !arpeggio!B3 z z8 | x12 | C3 z z4 z2 =c2 | x12 | x12 | x12 | x12 | x12 | x12 | x12 | %241
 z8 z2 g2 | F3 z z2 z4 f2 | x12 | x12 | z6 G4- G z | B2 z2 z8 | !arpeggio!B3 z z8 | x12 | %249
 C3 z z4 z2 =c2 | x12 | x12 | x12 | x12 | x12 | x12 | x12 | z8 z2 g2 | F3 z z2 z4 f2 | x12 | x12 | %261
 z6 G4- G x | x12 |[M:3/4] x6 | x6 | x6 | x6 | x6 | x6 | x6 | x6 | x6 | x6 | x6 | x6 | x6 | x6 | %277
 x6 | x6 | x6 | x6 | x6 | x6 | x6 | x6 | x6 | x6 | x6 | x6 | x6 | x6 | x6 | x6 | x6 | x6 | x6 | %296
 x6 | x6 | x6 | x6 | x6 | x6 | x6 | x6 | x6 | x6 | x6 | x6 | x6 | x6 | x6 |[M:3/8] x3 | x3 | x3 | %314
 x3 | x3 | x3 | x3 | x3 | x3 | x3 | x3 | x3 | x3 | x3 | x3 | x3 | x3 | x3 | x3 | x3 | x3 | x3 | %333
 x3 | x3 | x3 | x3 | x3 | x3 | x3 | x3 | x3 | x3 | x3 | x3 | x3 | x3 | x3 | x3 | x3 | x3 | x3 | %352
 x3 | x3 | x3 | x3 | x3 | x3 | x3 | x3 | x3 | x3 | x3 | x3 | x3 | x3 | x3 | x3 | x3 | x3 | x3 | %371
 x3 | x3 | x3 | x3 | x3 | x3 | x3 | x3 | x3 | x3 | x3 | x3 | x3 | x3 | x3 | x3 | x3 | x3 | x3 | %390
 x3 |[M:2/8] x2 |[M:1/8] x |[M:3/8] x3 | x3 | x3 | x3 | x3 | x3 | x3 | x3 | x3 | x3 | x3 | x3 | %405
 x3 | x3 | x3 | x3 | x3 | x3 | x3 | x3 | x3 | x3 | x3 | x3 | x3 | x3 | x3 | x3 | x3 | x3 | x3 | %424
 x3 | x3 | x3 | x3 | x3 | x3 | x3 | x3 | x3 | x3 | x3 | x3 | x3 | x3 | x3 | x3 |[M:2/8] x2 | %441
[M:1/8] x |[M:3/8] x3 | x3 | x3 | x3 | x3 | x3 | x3 | x3 | x3 | x3 | x3 | x3 | x3 | x3 | x3 | x3 | %458
 x3 | x3 | x3 | x3 | x3 | x3 | x3 | x3 | x3 | x3 | x3 | x3 | x3 | x3 | x3 | x3 | x3 | x3 | x3 | %477
 x3 | x3 | x3 | x3 | x3 | x3 | x3 | x3 | x3 | x3 | x3 | x3 | x3 | x3 | x3 | x3 | x3 | x3 | x3 | %496
 x3 | x3 | x3 | x3 | x3 | x3 | x3 | x3 | x3 | x3 | x3 | x3 | x3 | x3 | x3 | x3 | x3 | x3 | x3 | %515
 x3 | x3 | x3 | x3 | x3 | x3 | x3 | x3 |[M:3/8] x3 | x3 | x3 | x3 | x3 | x3 | x3 | x3 | x3 | x3 | %533
 x3 | x/ B3/2 z | x3 | x3 | x3 | x3 | x3 | x3 | x3 | x3 | x3 | x3 | x3 | x3 | x3 | x3 | x3 | x3 | %551
 x3 | x3 | x3 | x3 | x3 | x3 | x3 | x3 | x3 | x3 | x3 | x3 | x3 | x3 | x3 | x3 | x3 | x3 | x3 | %570
 x3 | x3 | x3 | x3 | x3 | x3 | x3 | x3 | x3 | x3 | x3 | x3 | x/ B3/2 z | x3 | x3 | x3 | x3 | x3 | %588
 x3 | x3 | x3 | x3 | x3 | x3 | x3 | x3 | x3 | x3 | x3 | x3 | x3 | x3 | x3 | x3 | x3 | x3 | x3 | %607
 x3 | x3 | x3 | x3 | x3 | x3 | x3 | x3 | x3 | x3 | x3 | x3 | x3 | x3 | x3 | x3 | x3 | x3 | x3 | %626
 x3 | x3 | x3 | x3 | x3 | x3 | x3 | x3 | x3 | x3 | x3 | x3 | x3 | x3 | x3 | x3 | x3 | x3 | x3 | %645
 x3 | x3 | x3 | x3 | x3 | x3 | x3 | x3 | x3 | x3 | x3 | x3 | x3 | x3 | x3 | x3 | x3 | x3 | x3 | %664
 x3 | x3 | x3 | x3 | x3 | x3 | x3 | x3 | x3 | x3 | x3 | x3 | x3 | x3 | x3 | x3 | x3 | x3 | x3 | %683
 x3 | x3 | x3 | x3 | x3 | x3 | x3 | x3 | x3 | x3 | x3 | x3 | x3 | x3 | x3 | x3 | x3 | x3 | x3 | %702
 x3 | x3 | x3 | x3 | x3 | x3 | x3 | x3 | x3 | x3 | x3 | x3 | x/ z/ z2 |] %715
V:6
 x6 | x6 | x6 | x6 | x6 | x6 | x6 | x6 | x6 | x6 | x6 | x6 | x6 | x6 | x6 | x6 | x6 | x6 | x6 | %19
 x6 | x6 | x6 | x6 | x6 | x6 | x6 | x6 | x6 | x6 | x6 | x6 | x6 | x6 | x6 | z ^C2- C z/ E3/2 | x6 | %36
 x6 | x6 | x6 | x6 | x6 | x6 | x6 | x6 | x6 | x6 | x6 | x6 | x6 | x6 | x6 | x6 | x6 | x6 | x6 | %55
 x6 | x6 | x6 | x6 | x6 | x6 | x6 | x6 | x6 | x6 | x6 | x6 | x6 | x6 | x6 | x6 | x6 | x6 | x6 | %74
 x6 | x6 | x6 | x6 | x6 | x6 | x6 | x6 | x6 | x6 | x6 | x6 | x6 | x6 | x6 | x6 | x6 | x6 | x6 | %93
 x6 | x6 | x6 | x6 | x6 | x6 | x6 | x6 | x6 | x6 | x6 | x6 | x6 | x6 | x6 | x6 | x6 | x6 | x6 | %112
 x6 | x6 | x6 | x6 | x6 | x6 | x6 | x6 | x6 | x6 | x6 | x6 | x6 | x6 | x6 | x6 | x6 | x6 | x6 | %131
 x6 | x6 | x6 | x6 | x6 | x6 | x6 | x6 | x6 | x6 | x6 | x6 | x6 | x6 | x6 | x6 | x6 | x6 | x6 | %150
 z ^C2- C z/ E3/2 | x6 | x6 | x6 | x6 | x6 |[M:4/4] x8 | x8 | x8 | x8 | x8 | x8 | x8 | x8 | x8 | %165
 x8 | x8 | x8 | x8 | x8 | x8 | x8 | x8 | x8 | x8 | x8 | x8 | x8 | x8 | x8 | x8 | x8 | x8 | x8 | %184
 x8 | x8 | x8 | x8 | x8 | x8 | x8 | x8 | x8 | x8 | x8 | x8 | x8 | x8 | x8 | x8 | x8 | x8 | x8 | %203
 x8 | x8 |[M:3/2] x12 | x12 | x12 | x12 | x12 | x12 | x12 | x12 | x12 | x12 | x12 | x12 | x12 | %218
 x12 | x12 | x12 | x12 | x12 | x12 | x12 | x12 | x12 | x12 | x12 | x12 | x12 | x12 | x12 | x12 | %234
 x12 | x12 | x12 | x12 | x12 | x12 | x12 | x12 | x12 | x12 | x12 | x12 | x12 | x12 | x12 | x12 | %250
 x12 | x12 | x12 | x12 | x12 | x12 | x12 | x12 | x12 | x12 | x12 | x12 | x12 |[M:3/4] x6 | x6 | %265
 x6 | x6 | x6 | x6 | x6 | x6 | x6 | x6 | x6 | x6 | x6 | x6 | x6 | x6 | x6 | x6 | x6 | x6 | x6 | %284
 x6 | x6 | x6 | x6 | x6 | x6 | x6 | x6 | x6 | x6 | x6 | x6 | x6 | x6 | x6 | x6 | x6 | x6 | x6 | %303
 x6 | x6 | x6 | x6 | x6 | x6 | x6 | x6 |[M:3/8] x3 | x3 | x3 | x3 | x3 | x3 | x3 | x3 | x3 | x3 | %321
 x3 | x3 | x3 | x3 | x3 | x3 | x3 | x3 | x3 | x3 | x3 | x3 | x3 | x3 | x3 | x3 | x3 | x3 | x3 | %340
 x3 | x3 | x3 | x3 | x3 | x3 | x3 | x3 | x3 | x3 | x3 | x3 | x3 | x3 | x3 | x3 | x3 | x3 | x3 | %359
 x3 | x3 | x3 | x3 | x3 | x3 | x3 | x3 | x3 | x3 | x3 | x3 | x3 | x3 | x3 | x3 | x3 | x3 | x3 | %378
 x3 | x3 | x3 | x3 | x3 | x3 | x3 | x3 | x3 | x3 | x3 | x3 | x3 |[M:2/8] x2 |[M:1/8] x | %393
[M:3/8] x3 | x3 | x3 | x3 | x3 | x3 | x3 | x3 | x3 | x3 | x3 | x3 | x3 | x3 | x3 | x3 | x3 | x3 | %411
 x3 | x3 | x3 | x3 | x3 | x3 | x3 | x3 | x3 | x3 | x3 | x3 | x3 | x3 | x3 | x3 | x3 | x3 | x3 | %430
 x3 | x3 | x3 | x3 | x3 | x3 | x3 | x3 | x3 | x3 |[M:2/8] x2 |[M:1/8] x |[M:3/8] x3 | x3 | x3 | %445
 x3 | x3 | x3 | x3 | x3 | x3 | x3 | x3 | x3 | x3 | x3 | x3 | x3 | x3 | x3 | x3 | x3 | x3 | x3 | %464
 x3 | x3 | x3 | x3 | x3 | x3 | x3 | x3 | x3 | x3 | x3 | x3 | x3 | x3 | x3 | x3 | x3 | x3 | x3 | %483
 x3 | x3 | x3 | x3 | x3 | x3 | x3 | x3 | x3 | x3 | x3 | x3 | x3 | x3 | x3 | x3 | x3 | x3 | x3 | %502
 x3 | x3 | x3 | x3 | x3 | x3 | x3 | x3 | x3 | x3 | x3 | x3 | x3 | x3 | x3 | x3 | x3 | x3 | x3 | %521
 x3 | x3 |[M:3/8] x3 | x3 | x3 | x3 | x3 | x3 | x3 | x3 | x3 | x3 | x3 | x3 | x3 | x3 | x3 | x3 | %539
 x3 | x3 | x3 | x3 | x3 | x3 | x3 | x3 | x3 | x3 | x3 | x3 | x3 | x3 | x3 | x3 | x3 | x3 | x3 | %558
 x3 | x3 | x3 | x3 | x3 | x3 | x3 | x3 | x3 | x3 | x3 | x3 | x3 | x3 | x3 | x3 | x3 | x3 | x3 | %577
 x3 | x3 | x3 | x3 | x3 | x3 | x3 | x3 | x3 | x3 | x3 | x3 | x3 | x3 | x3 | x3 | x3 | x3 | x3 | %596
 x3 | x3 | x3 | x3 | x3 | x3 | x3 | x3 | x3 | x3 | x3 | x3 | x3 | x3 | x3 | x3 | x3 | x3 | x3 | %615
 x3 | x3 | x3 | x3 | x3 | x3 | x3 | x3 | x3 | x3 | x3 | x3 | x3 | x3 | x3 | x3 | x3 | x3 | x3 | %634
 x3 | x3 | x3 | x3 | x3 | x3 | x3 | x3 | x3 | x3 | x3 | x3 | x3 | x3 | x3 | x3 | x3 | x3 | x3 | %653
 x3 | x3 | x3 | x3 | x3 | x3 | x3 | x3 | x3 | x3 | x3 | x3 | x3 | x3 | x3 | x3 | x3 | x3 | x3 | %672
 x3 | x3 | x3 | x3 | x3 | x3 | x3 | x3 | x3 | x3 | x3 | x3 | x3 | x3 | x3 | x3 | x3 | x3 | x3 | %691
 x3 | x3 | x3 | x3 | x3 | x3 | x3 | x3 | x3 | x3 | x3 | x3 | x3 | x3 | x3 | x3 | x3 | x3 | x3 | %710
 x3 | x3 | x3 | x3 | x3 |] %715
V:7
 x6 | x6 | x6 | x6 | x6 | x6 | x6 | x6 | x6 | x6 | x6 | x6 | x6 | x6 | x6 | x6 | x6 | x6 | x6 | %19
 x6 | x6 | x6 | x6 | x6 | x6 | x6 | x6 | x6 | x6 | x6 | x6 | x6 | x6 | x6 | x6 | x6 | x6 | x6 | %38
 x6 | x6 | x6 | x6 | x6 | x6 | x6 | x6 | x6 | x6 | x6 | x6 | x6 | x6 | x6 | x6 | x6 | x6 | x6 | %57
 x6 | x6 | x6 | x6 | x6 | x6 | x6 | x6 | x6 | x6 | x6 | x6 | x6 | x6 | x6 | x6 | x6 | x6 | x6 | %76
 x6 | x6 | x6 | x6 | x6 | x6 | x6 | x6 | x6 | x6 | x6 | x6 | x6 | x6 | x6 | x6 | x6 | x6 | x6 | %95
 x6 | x6 | x6 | x6 | x6 | x6 | x6 | x6 | x6 | x6 | x6 | x6 | x6 | x6 | x6 | x6 | x6 | x6 | x6 | %114
 x6 | x6 | x6 | x6 | x6 | x6 | x6 | x6 | x6 | x6 | x6 | x6 | x6 | x6 | x6 | x6 | x6 | x6 | x6 | %133
 x6 | x6 | x6 | x6 | x6 | x6 | x6 | x6 | x6 | x6 | x6 | x6 | x6 | x6 | x6 | x6 | x6 | x6 | x6 | %152
 x6 | x6 | x6 | x6 |[M:4/4] x8 | x8 | [E,G,]3/2 z/ z2 z4 | x8 | x8 | x8 | x8 | x8 | x8 | x8 | x8 | %167
 x8 | x8 | x8 | [E,G,]3/2 z/ z2 z4 | x8 | x8 | x8 | x8 | x8 | x8 | x8 | x8 | x8 | x8 | x8 | x8 | %183
 x8 | x8 | x8 | x8 | x8 | x8 | x8 | x8 | x8 | x8 | x8 | x8 | x8 | x8 | x8 | x8 | x8 | x8 | x8 | %202
 x8 | x8 | x8 |[M:3/2] x12 | x12 | x12 | x12 | x12 | x12 | x12 | x12 | x12 | x12 | x12 | x12 | %217
 x12 | x12 | x12 | x12 | x12 | x12 | x12 | x12 | x12 | x12 | x12 | x12 | x12 | x12 | x12 | x12 | %233
 x12 | x12 | x12 | x12 | x12 | x12 | x12 | x12 | x12 | x12 | x12 | x12 | x12 | x12 | x12 | x12 | %249
 x12 | x12 | x12 | x12 | x12 | x12 | x12 | x12 | x12 | x12 | x12 | x12 | x12 | x12 |[M:3/4] x6 | %264
 x6 | x6 | x6 | x6 | x6 | x6 | x6 | x6 | x6 | x6 | x6 | x6 | x6 | x6 | x6 | x6 | x6 | x6 | x6 | %283
 x6 | x6 | x6 | x6 | x6 | x6 | x6 | x6 | x6 | x6 | x6 | x6 | x6 | x6 | x6 | x6 | x6 | x6 | x6 | %302
 x6 | x6 | x6 | x6 | x6 | x6 | x6 | x6 | x6 |[M:3/8] x3 | x3 | x3 | x3 | x3 | x3 | x3 | x3 | x3 | %320
 x3 | x3 | x3 | x3 | x3 | x3 | x3 | x3 | x3 | x3 | x3 | x3 | x3 | x3 | x3 | x3 | x3 | x3 | x3 | %339
 x3 | x3 | x3 | x3 | x3 | x3 | x3 | x3 | x3 | x3 | x3 | x3 | x3 | x3 | x3 | x3 | x3 | x3 | x3 | %358
 x3 | x3 | x3 | x3 | x3 | x3 | x3 | x3 | x3 | x3 | x3 | x3 | x3 | x3 | x3 | x3 | x3 | x3 | x3 | %377
 x3 | x3 | x3 | x3 | x3 | x3 | x3 | x3 | x3 | x3 | x3 | x3 | x3 | x3 |[M:2/8] x2 |[M:1/8] x | %393
[M:3/8] x3 | x3 | x3 | x3 | x3 | x3 | x3 | x3 | x3 | x3 | x3 | x3 | x3 | x3 | x3 | x2[K:treble] x | %409
 x3 | x3 | x3 | x3 | x2[K:bass] x | x3 | x3 | x3 | x3 | x3 | x3 | x3 | x3 | x3 | x3 | %424
 x2[K:treble] x | x3 | x3 | x3 | x3 | x2[K:bass] x | x3 | x3 | x3 | x3 | x3 | x3 | x3 | x3 | x3 | %439
 x3 |[M:2/8] x2 |[M:1/8] x |[M:3/8] x3 | x3 | x3 | x3 | x3 | x3 | x3 | x3 | x3 | x3 | x3 | x3 | %454
 x3 | x3 | x3 | x3 | x3 | x3 | x3 | x3 | x3 | x3 | x3 | x3 | x3 | x3 | x3 | x3 | x3 | x3 | x3 | %473
 x3 | x3 | x3 | x3 | x3 | x3 | x3 | x3 | x3 | x3 | x3 | x3 | x3 | x3 | x3 | x3 | x3 | x3 | x3 | %492
 x3 | x3 | x3 | x3 | x3 | x3 | x3 | x3 | x3 | x3 | x3 | x3 | x3 | x3 | x3 | x3 | x3 | x3 | x3 | %511
 x3 | x3 | x3 | x3 | x3 | x3 | x3 | x3 | x3 | x3 | x3 | x3 |[M:3/8] x3 | x3 | x3 | x3 | x3 | x3 | %529
 x3 | x3 | x3 | x3 | x3 | x3 | x3 | x3 | x3 | x3 | x3 | x3 | x3 | x3 | x3 | x3 | x3 | x3 | x3 | %548
 x3 | x3 | x3 | x3 | x3 | x3 | x3 | x3 | x3 | x3 | x3 | x3 | x3 | x3 | x3 | x3 | x3 | x3 | B,,2 z | %567
 x3 | x3 | x3 | x3 | x3 | x3 | x3 | x3 | x3 | x3 | x3 | x3 | x3 | x3 | x3 | x3 | x3 | x3 | x3 | %586
 x3 | x3 | x3 | x3 | x3 | x3 | x3 | x3 | x3 | x3 | x3 | x3 | x3 | x3 | x3 | x3 | x3 | x3 | x3 | %605
 x3 | x3 | x3 | x3 | x3 | x3 | x3 | x3 | x3 | B,,2 z | x3 | x3 | x3 | x3 | x3 | x3 | x3 | x3 | x3 | %624
 x3 | x3 | x3 | x3 | x3 | x3 | x3 | x3 | x3 | x3 | x3 | x3 | x3 | x3 | x3 | x3 | x3 | x3 | x3 | %643
 x3 | x3 | x3 | x3 | x3 | x3 | x3 | x3 | x3 | x3 | x3 | x3 | x3 | x3 | x3 | x3 | x3 | x3 | x3 | %662
 x3 | x3 | x3 | x3 | x3 | x3 | x3 | x3 | x3 | x3 | x3 | x3 | x3 | x3 | x3 | x3 | x3 | x3 | x3 | %681
 x3 | x3 | x3 | x3 | x3 | x3 | x3 | x3 | x3 | x3 | x3 | x3 | x3 | x3 | x3 | x3 | x3 | x3 | x3 | %700
 x3 | x3 | x3 | x3 | x3 | x3 | x3 | x3 | x3 | x3 | x3 | x3 | x3 | x3 | x3 |] %715

